; generated by PrusaSlicer 2.3.3+win64 on 2021-12-14 at 07:16:49 UTC

; 

; external perimeters extrusion width = 0.45mm
; perimeters extrusion width = 0.45mm
; infill extrusion width = 0.45mm
; solid infill extrusion width = 0.45mm
; top infill extrusion width = 0.40mm
; first layer extrusion width = 0.42mm

M201 X500 Y500 Z100 E5000 ; sets maximum accelerations, mm/sec^2
M203 X500 Y500 Z10 E60 ; sets maximum feedrates, mm/sec
M204 P500 R1000 T500 ; sets acceleration (P, T) and retract acceleration (R), mm/sec^2
M205 X8.00 Y8.00 Z0.40 E5.00 ; sets the jerk limits, mm/sec
M205 S0 T0 ; sets the minimum extruding and travel feed rate, mm/sec
;TYPE:Custom
G90 ; use absolute coordinates
M83 ; extruder relative mode
M140 S60 ; set final bed temp
M104 S150 ; set temporary nozzle temp to prevent oozing during homing
G4 S10 ; allow partial nozzle warmup
G28 ; home all axis
G1 Z50 F240
G1 X2 Y10 F3000
M104 S210 ; set final nozzle temp
M190 S60 ; wait for bed temp to stabilize
M109 S210 ; wait for nozzle temp to stabilize
G1 Z0.28 F240
G92 E0
G1 Y140 E10 F1500 ; prime the nozzle
G1 X2.3 F5000
G92 E0
G1 Y10 E10 F1200 ; prime the nozzle
G92 E0
G21 ; set units to millimeters
G90 ; use absolute coordinates
M83 ; use relative distances for extrusion
; Filament gcode
M106 S255
;LAYER_CHANGE
;Z:0.2
;HEIGHT:0.2
;BEFORE_LAYER_CHANGE
G92 E0
;0.2


G1 Z0.200 F9000.000
;AFTER_LAYER_CHANGE
;0.2
G1 E-5.00000 F3600.000
G1 X55.985 Y26.182 F9000.000
G1 E5.00000 F2400.000
M204 S500
;TYPE:Skirt
;WIDTH:0.42
G1 F1200.000
G1 X57.776 Y23.468 E0.10196
G1 X59.139 Y21.808 E0.06733
G1 X60.659 Y20.268 E0.06786
G1 X62.551 Y18.674 E0.07756
G1 X63.422 Y18.035 E0.03389
G1 X65.297 Y16.841 E0.06969
G1 X67.526 Y15.709 E0.07836
G1 X69.888 Y14.796 E0.07941
G1 X72.005 Y14.206 E0.06891
G1 X73.062 Y13.983 E0.03389
G1 X75.453 Y13.644 E0.07572
G1 X77.654 Y13.569 E0.06903
G1 X95.732 Y13.537 E0.56683
G1 X151.595 Y13.537 E1.75155
G1 X169.677 Y13.569 E0.56696
G1 X171.831 Y13.640 E0.06756
G1 X175.231 Y14.182 E0.10796
G1 X177.357 Y14.767 E0.06911
G1 X179.475 Y15.568 E0.07101
G1 X182.020 Y16.834 E0.08911
G1 X184.220 Y18.249 E0.08204
G1 X186.305 Y19.926 E0.08387
G1 X188.119 Y21.729 E0.08020
G1 X189.819 Y23.816 E0.08440
G1 X191.238 Y25.994 E0.08151
G1 X192.434 Y28.331 E0.08230
G1 X193.349 Y30.692 E0.07941
G1 X194.034 Y33.191 E0.08125
G1 X194.396 Y35.325 E0.06785
G1 X194.518 Y36.449 E0.03546
G1 X194.581 Y38.474 E0.06351
G1 X194.582 Y57.969 E0.61124
G1 X194.520 Y60.962 E0.09386
G1 X194.166 Y64.763 E0.11970
G1 X193.555 Y68.407 E0.11585
G1 X192.806 Y71.587 E0.10246
G1 X191.702 Y75.157 E0.11716
G1 X190.616 Y78.025 E0.09615
G1 X189.359 Y80.813 E0.09589
G1 X187.742 Y83.891 E0.10901
G1 X185.788 Y87.066 E0.11690
G1 X183.779 Y89.874 E0.10824
G1 X181.573 Y92.562 E0.10902
G1 X179.128 Y95.162 E0.11191
G1 X176.684 Y97.443 E0.10482
G1 X173.790 Y99.794 E0.11690
G1 X170.964 Y101.789 E0.10846
G1 X168.363 Y103.399 E0.09592
G1 X165.662 Y104.850 E0.09615
G1 X162.251 Y106.417 E0.11768
G1 X159.037 Y107.630 E0.10771
G1 X155.718 Y108.639 E0.10876
G1 X152.430 Y109.408 E0.10587
G1 X149.009 Y109.977 E0.10876
G1 X145.924 Y110.289 E0.09720
G1 X142.361 Y110.399 E0.11176
G1 X105.195 Y110.401 E1.16533
G1 X101.405 Y110.288 E0.11889
G1 X98.329 Y109.978 E0.09693
G1 X94.989 Y109.426 E0.10613
G1 X91.266 Y108.540 E0.12001
G1 X88.308 Y107.635 E0.09697
G1 X85.117 Y106.432 E0.10692
G1 X82.026 Y105.033 E0.10640
G1 X79.296 Y103.582 E0.09694
G1 X76.035 Y101.575 E0.12005
G1 X73.283 Y99.604 E0.10614
G1 X70.875 Y97.637 E0.09746
G1 X67.988 Y94.948 E0.12372
G1 X65.745 Y92.548 E0.10298
G1 X63.659 Y90.012 E0.10298
G1 X58.112 Y82.934 E0.28194
G1 X57.451 Y81.935 E0.03756
G1 X56.894 Y80.865 E0.03782
G1 X56.201 Y78.882 E0.06587
G1 X53.753 Y68.306 E0.34037
G1 X53.174 Y64.837 E0.11027
G1 X52.861 Y61.744 E0.09746
G1 X52.749 Y57.988 E0.11780
G1 X52.749 Y38.393 E0.61441
G1 X52.842 Y36.052 E0.07344
G1 X53.211 Y33.607 E0.07754
G1 X54.108 Y30.335 E0.10636
G1 X54.907 Y28.306 E0.06838
G1 X55.958 Y26.235 E0.07281
G1 X56.294 Y26.406 F9000.000
G1 F1200.000
G1 X58.078 Y23.694 E0.10176
G1 X59.426 Y22.053 E0.06659
G1 X60.942 Y20.519 E0.06763
G1 X63.638 Y18.343 E0.10864
G1 X65.486 Y17.168 E0.06866
G1 X67.688 Y16.050 E0.07745
G1 X70.007 Y15.153 E0.07796
G1 X72.109 Y14.568 E0.06840
G1 X75.497 Y14.019 E0.10761
G1 X77.660 Y13.946 E0.06788
G1 X95.724 Y13.914 E0.56638
G1 X151.595 Y13.914 E1.75178
G1 X169.676 Y13.946 E0.56693
G1 X171.795 Y14.015 E0.06648
G1 X175.140 Y14.548 E0.10618
G1 X177.233 Y15.124 E0.06808
G1 X179.313 Y15.909 E0.06970
G1 X181.834 Y17.162 E0.08828
G1 X184.001 Y18.556 E0.08080
G1 X186.054 Y20.208 E0.08260
G1 X187.841 Y21.984 E0.07899
G1 X189.515 Y24.039 E0.08312
G1 X190.913 Y26.185 E0.08028
G1 X192.091 Y28.486 E0.08106
G1 X192.995 Y30.820 E0.07848
G1 X193.668 Y33.282 E0.08002
G1 X194.025 Y35.392 E0.06711
G1 X194.142 Y36.482 E0.03436
G1 X194.204 Y38.481 E0.06271
G1 X194.204 Y57.968 E0.61101
G1 X194.144 Y60.943 E0.09329
G1 X193.791 Y64.720 E0.11895
G1 X193.185 Y68.336 E0.11494
G1 X192.442 Y71.487 E0.10151
G1 X191.350 Y75.021 E0.11597
G1 X190.268 Y77.879 E0.09583
G1 X189.016 Y80.658 E0.09557
G1 X187.410 Y83.713 E0.10822
G1 X185.475 Y86.856 E0.11571
G1 X183.476 Y89.649 E0.10771
G1 X181.291 Y92.311 E0.10797
G1 X178.841 Y94.915 E0.11210
G1 X176.432 Y97.163 E0.10332
G1 X173.567 Y99.490 E0.11571
G1 X170.765 Y101.468 E0.10754
G1 X168.177 Y103.071 E0.09547
G1 X165.484 Y104.517 E0.09583
G1 X162.108 Y106.068 E0.11649
G1 X158.917 Y107.272 E0.10694
G1 X155.614 Y108.276 E0.10823
G1 X152.350 Y109.040 E0.10513
G1 X148.953 Y109.604 E0.10797
G1 X145.887 Y109.913 E0.09660
G1 X142.345 Y110.022 E0.11111
G1 X105.187 Y110.024 E1.16506
G1 X101.436 Y109.913 E0.11766
G1 X98.381 Y109.605 E0.09629
G1 X95.056 Y109.055 E0.10564
G1 X91.759 Y108.288 E0.10616
G1 X88.808 Y107.400 E0.09660
G1 X85.256 Y106.082 E0.11881
G1 X82.186 Y104.691 E0.10565
G1 X79.466 Y103.245 E0.09660
G1 X76.239 Y101.258 E0.11881
G1 X73.507 Y99.300 E0.10539
G1 X71.109 Y97.341 E0.09712
G1 X68.235 Y94.661 E0.12320
G1 X66.025 Y92.295 E0.10151
G1 X63.952 Y89.775 E0.10229
G1 X58.417 Y82.712 E0.28137
G1 X57.776 Y81.743 E0.03642
G1 X57.236 Y80.706 E0.03668
G1 X56.565 Y78.786 E0.06375
G1 X54.121 Y68.224 E0.33991
G1 X53.547 Y64.781 E0.10947
G1 X53.236 Y61.707 E0.09686
G1 X53.126 Y57.983 E0.11680
G1 X53.126 Y38.403 E0.61393
G1 X53.217 Y36.092 E0.07251
G1 X53.579 Y33.687 E0.07627
G1 X54.458 Y30.474 E0.10446
G1 X55.248 Y28.467 E0.06763
G1 X56.267 Y26.459 E0.07057
G1 X56.602 Y26.629 F9000.000
G1 F1200.000
G1 X58.374 Y23.928 E0.10130
G1 X59.707 Y22.305 E0.06585
G1 X61.229 Y20.765 E0.06789
G1 X63.855 Y18.652 E0.10566
G1 X65.674 Y17.494 E0.06763
G1 X67.851 Y16.390 E0.07652
G1 X70.135 Y15.508 E0.07677
G1 X72.205 Y14.933 E0.06738
G1 X75.540 Y14.394 E0.10591
G1 X77.659 Y14.323 E0.06648
G1 X95.733 Y14.291 E0.56670
G1 X151.595 Y14.291 E1.75151
G1 X169.667 Y14.323 E0.56663
G1 X171.760 Y14.391 E0.06567
G1 X175.041 Y14.912 E0.10415
G1 X177.111 Y15.480 E0.06731
G1 X179.144 Y16.247 E0.06814
G1 X181.642 Y17.486 E0.08742
G1 X183.776 Y18.859 E0.07956
G1 X185.804 Y20.490 E0.08159
G1 X187.563 Y22.239 E0.07779
G1 X189.207 Y24.256 E0.08159
G1 X190.588 Y26.375 E0.07931
G1 X191.750 Y28.649 E0.08007
G1 X192.640 Y30.948 E0.07728
G1 X193.301 Y33.372 E0.07880
G1 X193.653 Y35.451 E0.06610
G1 X193.766 Y36.506 E0.03326
G1 X193.827 Y38.487 E0.06216
G1 X193.827 Y57.959 E0.61053
G1 X193.767 Y60.933 E0.09324
G1 X193.418 Y64.669 E0.11767
G1 X192.816 Y68.256 E0.11403
G1 X192.079 Y71.386 E0.10083
G1 X190.996 Y74.892 E0.11504
G1 X189.917 Y77.740 E0.09550
G1 X188.672 Y80.502 E0.09499
G1 X187.074 Y83.542 E0.10768
G1 X185.158 Y86.652 E0.11454
G1 X183.173 Y89.425 E0.10693
G1 X181.004 Y92.067 E0.10718
G1 X178.561 Y94.662 E0.11175
G1 X176.185 Y96.877 E0.10185
G1 X173.344 Y99.186 E0.11479
G1 X170.865 Y100.955 E0.09550
G1 X168.288 Y102.565 E0.09524
G1 X165.299 Y104.188 E0.10666
G1 X161.957 Y105.722 E0.11530
G1 X158.789 Y106.917 E0.10616
G1 X155.519 Y107.912 E0.10718
G1 X152.261 Y108.673 E0.10489
G1 X148.905 Y109.230 E0.10667
G1 X145.842 Y109.539 E0.09651
G1 X142.337 Y109.645 E0.10995
G1 X105.188 Y109.647 E1.16479
G1 X101.468 Y109.537 E0.11669
G1 X98.432 Y109.231 E0.09566
G1 X95.132 Y108.686 E0.10489
G1 X91.850 Y107.922 E0.10566
G1 X88.918 Y107.039 E0.09600
G1 X85.402 Y105.734 E0.11758
G1 X82.355 Y104.354 E0.10489
G1 X79.651 Y102.916 E0.09600
G1 X76.451 Y100.946 E0.11784
G1 X73.738 Y99.002 E0.10464
G1 X71.348 Y97.049 E0.09677
G1 X68.488 Y94.381 E0.12266
G1 X66.310 Y92.048 E0.10007
G1 X64.277 Y89.577 E0.10032
G1 X58.761 Y82.542 E0.28030
G1 X57.695 Y80.795 E0.06417
G1 X57.228 Y79.682 E0.03783
G1 X56.890 Y78.524 E0.03783
G1 X54.495 Y68.167 E0.33332
G1 X53.875 Y64.339 E0.12157
G1 X53.579 Y61.258 E0.09705
G1 X53.504 Y58.092 E0.09930
G1 X53.503 Y38.519 E0.61370
G1 X53.587 Y36.189 E0.07311
G1 X53.917 Y33.942 E0.07119
G1 X54.795 Y30.650 E0.10686
G1 X55.586 Y28.634 E0.06788
G1 X56.575 Y26.683 E0.06859
G1 X57.018 Y26.653 F9000.000
G1 F1200.000
G1 X58.725 Y24.092 E0.09649
G1 X60.037 Y22.503 E0.06461
G1 X61.703 Y20.838 E0.07384
G1 X63.595 Y19.295 E0.07658
G1 X65.319 Y18.151 E0.06485
G1 X68.071 Y16.705 E0.09749
G1 X70.277 Y15.858 E0.07409
G1 X72.325 Y15.292 E0.06660
G1 X75.599 Y14.768 E0.10396
G1 X77.666 Y14.700 E0.06485
G1 X95.733 Y14.669 E0.56650
G1 X151.594 Y14.669 E1.75148
G1 X169.665 Y14.700 E0.56660
G1 X171.725 Y14.767 E0.06462
G1 X174.957 Y15.279 E0.10261
G1 X177.003 Y15.842 E0.06653
G1 X179.035 Y16.610 E0.06810
G1 X181.470 Y17.822 E0.08529
G1 X183.583 Y19.184 E0.07882
G1 X185.571 Y20.788 E0.08007
G1 X187.339 Y22.553 E0.07832
G1 X188.926 Y24.512 E0.07907
G1 X190.306 Y26.642 E0.07957
G1 X191.442 Y28.884 E0.07882
G1 X192.383 Y31.386 E0.08380
G1 X193.003 Y33.790 E0.07782
G1 X193.399 Y36.713 E0.09250
G1 X193.449 Y58.094 E0.67040
G1 X193.373 Y61.261 E0.09931
G1 X193.044 Y64.619 E0.10579
G1 X192.498 Y67.935 E0.10539
G1 X191.774 Y71.063 E0.10065
G1 X190.759 Y74.433 E0.11038
G1 X189.564 Y77.609 E0.10639
G1 X188.168 Y80.684 E0.10589
G1 X186.443 Y83.880 E0.11386
G1 X184.631 Y86.751 E0.10646
G1 X182.865 Y89.207 E0.09483
G1 X180.949 Y91.550 E0.09491
G1 X178.479 Y94.213 E0.11386
G1 X176.129 Y96.423 E0.10115
G1 X173.402 Y98.673 E0.11087
G1 X170.670 Y100.632 E0.10539
G1 X167.796 Y102.420 E0.10614
G1 X164.824 Y104.008 E0.10564
G1 X161.770 Y105.392 E0.10514
G1 X158.601 Y106.583 E0.10614
G1 X155.376 Y107.559 E0.10564
G1 X151.875 Y108.362 E0.11262
G1 X148.825 Y108.860 E0.09691
G1 X145.774 Y109.167 E0.09616
G1 X142.291 Y109.269 E0.10925
G1 X123.294 Y109.302 E0.59562
G1 X102.164 Y109.207 E0.66253
G1 X98.208 Y108.817 E0.12463
G1 X95.176 Y108.310 E0.09641
G1 X91.956 Y107.560 E0.10365
G1 X88.394 Y106.464 E0.11685
G1 X85.541 Y105.384 E0.09566
G1 X82.544 Y104.027 E0.10314
G1 X79.250 Y102.250 E0.11736
G1 X76.656 Y100.629 E0.09591
G1 X73.962 Y98.699 E0.10389
G1 X71.109 Y96.338 E0.11611
G1 X68.886 Y94.249 E0.09566
G1 X66.727 Y91.949 E0.09891
G1 X64.575 Y89.347 E0.10589
G1 X59.079 Y82.338 E0.27926
G1 X58.365 Y81.256 E0.04065
G1 X57.788 Y80.086 E0.04090
G1 X57.283 Y78.545 E0.05085
G1 X54.847 Y68.007 E0.33912
G1 X54.290 Y64.653 E0.10661
G1 X53.963 Y61.348 E0.10414
G1 X53.880 Y57.975 E0.10577
G1 X53.881 Y38.400 E0.61377
G1 X53.969 Y36.148 E0.07066
G1 X54.328 Y33.784 E0.07498
G1 X55.177 Y30.704 E0.10015
G1 X55.944 Y28.758 E0.06560
G1 X56.991 Y26.706 E0.07221
G1 E-5.00000 F3600.000
G1 X158.636 Y80.924 F9000.000
G1 E5.00000 F2400.000
;TYPE:Perimeter
G1 F1200.000
G1 X159.196 Y80.153 E0.02990
G1 X159.989 Y79.485 E0.03249
G1 X160.896 Y79.061 E0.03141
G1 X161.834 Y78.882 E0.02993
G1 X162.869 Y78.941 E0.03252
G1 X163.821 Y79.254 E0.03143
G1 X164.661 Y79.793 E0.03128
G1 X165.339 Y80.521 E0.03119
G1 X165.799 Y81.359 E0.02996
G1 X166.057 Y82.361 E0.03246
G1 X166.057 Y83.317 E0.02998
G1 X165.816 Y84.282 E0.03117
G1 X165.340 Y85.159 E0.03128
G1 X164.661 Y85.889 E0.03128
G1 X163.818 Y86.430 E0.03142
G1 X162.829 Y86.746 E0.03253
G1 X161.877 Y86.806 E0.02993
G1 X160.898 Y86.622 E0.03123
G1 X159.994 Y86.199 E0.03128
G1 X159.224 Y85.565 E0.03129
G1 X158.633 Y84.753 E0.03147
G1 X158.262 Y83.786 E0.03247
G1 X158.143 Y82.841 E0.02988
G1 X158.268 Y81.851 E0.03128
G1 X158.614 Y80.980 E0.02939
G1 X158.964 Y81.119 F9000.000
G1 F1200.000
G1 X159.475 Y80.411 E0.02736
G1 X160.194 Y79.805 E0.02949
G1 X161.013 Y79.422 E0.02837
G1 X161.859 Y79.261 E0.02699
G1 X162.798 Y79.314 E0.02951
G1 X163.658 Y79.597 E0.02838
G1 X164.418 Y80.084 E0.02829
G1 X165.031 Y80.744 E0.02823
G1 X165.446 Y81.499 E0.02701
G1 X165.680 Y82.409 E0.02947
G1 X165.680 Y83.271 E0.02702
G1 X165.462 Y84.144 E0.02822
G1 X165.032 Y84.937 E0.02828
G1 X164.418 Y85.598 E0.02829
G1 X163.656 Y86.086 E0.02837
G1 X162.759 Y86.372 E0.02951
G1 X161.900 Y86.426 E0.02699
G1 X161.014 Y86.260 E0.02826
G1 X160.197 Y85.878 E0.02829
G1 X159.500 Y85.304 E0.02829
G1 X158.967 Y84.572 E0.02841
G1 X158.631 Y83.694 E0.02948
G1 X158.523 Y82.841 E0.02696
G1 X158.636 Y81.946 E0.02828
G1 X158.942 Y81.175 E0.02601
G1 X159.293 Y81.314 F9000.000
;TYPE:External perimeter
G1 F1200.000
G1 X159.753 Y80.670 E0.02481
G1 X160.399 Y80.126 E0.02649
G1 X161.130 Y79.784 E0.02532
G1 X161.884 Y79.640 E0.02405
G1 X162.728 Y79.688 E0.02650
G1 X163.495 Y79.941 E0.02533
G1 X164.174 Y80.376 E0.02529
G1 X164.723 Y80.966 E0.02527
G1 X165.092 Y81.639 E0.02406
G1 X165.303 Y82.457 E0.02649
G1 X165.303 Y83.224 E0.02406
G1 X165.108 Y84.006 E0.02527
G1 X164.723 Y84.715 E0.02529
G1 X164.174 Y85.306 E0.02529
G1 X163.494 Y85.742 E0.02532
G1 X162.689 Y85.999 E0.02650
G1 X161.923 Y86.047 E0.02405
G1 X161.131 Y85.898 E0.02529
G1 X160.400 Y85.556 E0.02530
G1 X159.777 Y85.043 E0.02530
G1 X159.301 Y84.390 E0.02534
G1 X158.999 Y83.601 E0.02648
G1 X158.903 Y82.841 E0.02404
G1 X159.004 Y82.041 E0.02529
G1 X159.270 Y81.370 E0.02263
G1 X159.083 Y80.973 F9000.000
G1 E-5.00000 F3600.000
G1 X87.057 Y82.361 F9000.000
G1 E5.00000 F2400.000
;TYPE:Perimeter
G1 F1200.000
G1 X87.057 Y83.317 E0.02998
G1 X86.816 Y84.282 E0.03117
G1 X86.340 Y85.159 E0.03128
G1 X85.661 Y85.889 E0.03128
G1 X84.818 Y86.430 E0.03142
G1 X83.829 Y86.746 E0.03253
G1 X82.877 Y86.806 E0.02993
G1 X81.898 Y86.622 E0.03123
G1 X80.994 Y86.199 E0.03129
G1 X80.224 Y85.565 E0.03129
G1 X79.633 Y84.753 E0.03147
G1 X79.262 Y83.786 E0.03247
G1 X79.143 Y82.841 E0.02988
G1 X79.268 Y81.851 E0.03128
G1 X79.636 Y80.924 E0.03127
G1 X80.196 Y80.153 E0.02990
G1 X80.989 Y79.485 E0.03249
G1 X81.896 Y79.061 E0.03141
G1 X82.834 Y78.882 E0.02993
G1 X83.869 Y78.941 E0.03252
G1 X84.821 Y79.254 E0.03143
G1 X85.661 Y79.793 E0.03128
G1 X86.339 Y80.521 E0.03119
G1 X86.799 Y81.359 E0.02996
G1 X87.042 Y82.303 E0.03058
G1 X86.677 Y82.397 F9000.000
G1 F1200.000
G1 X86.680 Y83.271 E0.02739
G1 X86.462 Y84.144 E0.02822
G1 X86.032 Y84.937 E0.02828
G1 X85.418 Y85.598 E0.02829
G1 X84.656 Y86.086 E0.02837
G1 X83.759 Y86.372 E0.02951
G1 X82.900 Y86.426 E0.02699
G1 X82.014 Y86.260 E0.02826
G1 X81.197 Y85.878 E0.02829
G1 X80.500 Y85.304 E0.02829
G1 X79.967 Y84.572 E0.02841
G1 X79.631 Y83.694 E0.02948
G1 X79.523 Y82.841 E0.02696
G1 X79.636 Y81.946 E0.02828
G1 X79.969 Y81.108 E0.02828
G1 X80.475 Y80.411 E0.02698
G1 X81.194 Y79.805 E0.02949
G1 X82.013 Y79.422 E0.02837
G1 X82.859 Y79.261 E0.02699
G1 X83.798 Y79.314 E0.02951
G1 X84.658 Y79.597 E0.02838
G1 X85.418 Y80.084 E0.02829
G1 X86.031 Y80.744 E0.02823
G1 X86.446 Y81.499 E0.02701
G1 X86.662 Y82.339 E0.02721
G1 X86.297 Y82.433 F9000.000
;TYPE:External perimeter
G1 F1200.000
G1 X86.303 Y83.224 E0.02480
G1 X86.108 Y84.006 E0.02527
G1 X85.723 Y84.715 E0.02529
G1 X85.174 Y85.306 E0.02529
G1 X84.494 Y85.742 E0.02532
G1 X83.689 Y85.999 E0.02650
G1 X82.923 Y86.047 E0.02405
G1 X82.131 Y85.898 E0.02529
G1 X81.400 Y85.556 E0.02530
G1 X80.777 Y85.043 E0.02530
G1 X80.301 Y84.390 E0.02534
G1 X79.999 Y83.601 E0.02648
G1 X79.903 Y82.841 E0.02404
G1 X80.004 Y82.041 E0.02529
G1 X80.302 Y81.291 E0.02530
G1 X80.753 Y80.670 E0.02405
G1 X81.399 Y80.126 E0.02649
G1 X82.130 Y79.784 E0.02532
G1 X82.884 Y79.640 E0.02405
G1 X83.728 Y79.688 E0.02650
G1 X84.495 Y79.941 E0.02533
G1 X85.174 Y80.376 E0.02529
G1 X85.723 Y80.966 E0.02527
G1 X86.092 Y81.639 E0.02406
G1 X86.282 Y82.375 E0.02384
G1 X86.667 Y82.587 F9000.000
G1 E-5.00000 F3600.000
