; generated by PrusaSlicer 2.3.3+win64 on 2021-12-20 at 09:00:16 UTC

; 

; external perimeters extrusion width = 0.45mm
; perimeters extrusion width = 0.45mm
; infill extrusion width = 0.45mm
; solid infill extrusion width = 0.45mm
; top infill extrusion width = 0.40mm
; first layer extrusion width = 0.42mm

M201 X500 Y500 Z100 E1000 ; sets maximum accelerations, mm/sec^2
M203 X300 Y300 Z5 E60 ; sets maximum feedrates, mm/sec
M204 P500 R1000 T500 ; sets acceleration (P, T) and retract acceleration (R), mm/sec^2
M205 X8.00 Y8.00 Z0.40 E5.00 ; sets the jerk limits, mm/sec
M205 S0 T0 ; sets the minimum extruding and travel feed rate, mm/sec
;TYPE:Custom
G90 ; use absolute coordinates
M83 ; extruder relative mode
M140 S60 ; set final bed temp
M104 S150 ; set temporary nozzle temp to prevent oozing during homing and auto bed leveling
M190 S60 ; wait for bed temp to stabilize
G28 ; home all axis
G29 ; auto bed levelling
G1 Z50 F240
G1 X2 Y10 F3000
M104 S215 ; set final nozzle temp
M109 S215 ; wait for nozzle temp to stabilize
G1 Z0.28 F240
G92 E0
G1 Y140 E10 F1500 ; prime the nozzle
G1 X2.3 F5000
G92 E0
G1 Y10 E10 F1200 ; prime the nozzle
G92 E0
G21 ; set units to millimeters
G90 ; use absolute coordinates
M83 ; use relative distances for extrusion
; Filament gcode
M106 S255
;LAYER_CHANGE
;Z:0.2
;HEIGHT:0.2
;BEFORE_LAYER_CHANGE
G92 E0
;0.2


G1 Z0.200 F9000.000
;AFTER_LAYER_CHANGE
;0.2
G1 E-5.00000 F3600.000
G1 X112.061 Y50.963 F9000.000
G1 E5.00000 F2400.000
M204 S500
;TYPE:Skirt
;WIDTH:0.42
G1 F1200.000
G1 X113.234 Y48.532 E0.08465
G1 X114.785 Y46.075 E0.09111
G1 X116.458 Y43.997 E0.08364
G1 X118.359 Y42.102 E0.08415
G1 X120.590 Y40.331 E0.08931
G1 X122.440 Y39.144 E0.06892
G1 X124.296 Y38.180 E0.06556
G1 X127.140 Y37.046 E0.09601
G1 X130.122 Y36.283 E0.09652
G1 X132.198 Y35.969 E0.06582
G1 X134.294 Y35.845 E0.06582
G1 X226.678 Y35.834 E2.89665
G1 X229.221 Y35.967 E0.07984
G1 X231.694 Y36.353 E0.07848
G1 X234.170 Y37.005 E0.08028
G1 X236.260 Y37.785 E0.06995
G1 X238.788 Y39.025 E0.08827
G1 X240.681 Y40.220 E0.07020
G1 X241.594 Y40.884 E0.03539
G1 X243.535 Y42.528 E0.07974
G1 X245.055 Y44.081 E0.06814
G1 X246.666 Y46.092 E0.08080
G1 X248.013 Y48.182 E0.07796
G1 X249.192 Y50.510 E0.08183
G1 X250.088 Y52.856 E0.07874
G1 X250.747 Y55.313 E0.07977
G1 X251.149 Y57.834 E0.08003
G1 X251.288 Y60.259 E0.07615
G1 X251.289 Y79.912 E0.61621
G1 X251.168 Y83.401 E0.10947
G1 X250.841 Y86.672 E0.10306
G1 X250.278 Y90.069 E0.10797
G1 X249.503 Y93.382 E0.10668
G1 X248.430 Y96.870 E0.11442
G1 X247.177 Y100.134 E0.10961
G1 X245.915 Y102.905 E0.09547
G1 X244.468 Y105.625 E0.09660
G1 X242.525 Y108.781 E0.11623
G1 X240.505 Y111.601 E0.10875
G1 X238.324 Y114.255 E0.10771
G1 X235.762 Y116.962 E0.11685
G1 X233.536 Y119.039 E0.09547
G1 X231.164 Y120.993 E0.09634
G1 X228.189 Y123.148 E0.11520
G1 X225.238 Y124.986 E0.10900
G1 X222.260 Y126.580 E0.10590
G1 X219.147 Y127.993 E0.10720
G1 X216.258 Y129.088 E0.09686
G1 X212.325 Y130.282 E0.12888
G1 X209.291 Y130.981 E0.09764
G1 X205.794 Y131.550 E0.11107
G1 X202.572 Y131.862 E0.10151
G1 X199.278 Y131.973 E0.10332
G1 X162.261 Y131.974 E1.16066
G1 X158.862 Y131.862 E0.10663
G1 X155.476 Y131.529 E0.10668
G1 X152.135 Y130.979 E0.10616
G1 X149.133 Y130.286 E0.09660
G1 X145.478 Y129.195 E0.11959
G1 X142.348 Y128.016 E0.10487
G1 X139.501 Y126.734 E0.09789
G1 X135.907 Y124.810 E0.12785
G1 X133.287 Y123.172 E0.09686
G1 X130.542 Y121.204 E0.10591
G1 X127.930 Y119.062 E0.10591
G1 X125.659 Y116.945 E0.09737
G1 X122.876 Y113.975 E0.12759
G1 X120.906 Y111.564 E0.09764
G1 X118.976 Y108.873 E0.10384
G1 X116.961 Y105.606 E0.12036
G1 X115.511 Y102.878 E0.09686
G1 X114.111 Y99.786 E0.10642
G1 X112.924 Y96.632 E0.10564
G1 X112.018 Y93.670 E0.09712
G1 X111.116 Y89.837 E0.12346
G1 X110.555 Y86.306 E0.11210
G1 X110.261 Y83.264 E0.09583
G1 X110.155 Y80.218 E0.09557
G1 X110.153 Y60.190 E0.62796
G1 X110.306 Y57.690 E0.07855
G1 X110.814 Y54.804 E0.09188
G1 X111.353 Y52.852 E0.06350
G1 X112.040 Y51.020 E0.06135
G1 X112.393 Y51.152 F9000.000
G1 F1200.000
G1 X113.569 Y48.705 E0.08513
G1 X115.093 Y46.293 E0.08945
G1 X116.745 Y44.242 E0.08261
G1 X118.611 Y42.382 E0.08260
G1 X120.828 Y40.625 E0.08868
G1 X122.630 Y39.469 E0.06713
G1 X124.466 Y38.517 E0.06484
G1 X127.266 Y37.402 E0.09452
G1 X130.186 Y36.654 E0.09451
G1 X132.239 Y36.344 E0.06509
G1 X134.320 Y36.221 E0.06535
G1 X226.678 Y36.211 E2.89583
G1 X229.184 Y36.342 E0.07867
G1 X231.619 Y36.722 E0.07728
G1 X234.057 Y37.365 E0.07905
G1 X236.123 Y38.136 E0.06915
G1 X238.604 Y39.354 E0.08665
G1 X240.475 Y40.536 E0.06940
G1 X241.366 Y41.184 E0.03453
G1 X243.277 Y42.803 E0.07852
G1 X244.769 Y44.326 E0.06686
G1 X246.356 Y46.307 E0.07956
G1 X247.687 Y48.371 E0.07702
G1 X248.847 Y50.664 E0.08057
G1 X249.729 Y52.974 E0.07753
G1 X250.378 Y55.394 E0.07855
G1 X250.776 Y57.884 E0.07906
G1 X250.911 Y60.296 E0.07575
G1 X250.912 Y79.911 E0.61501
G1 X250.792 Y83.364 E0.10834
G1 X250.467 Y86.628 E0.10286
G1 X249.909 Y89.993 E0.10693
G1 X249.140 Y93.282 E0.10591
G1 X248.078 Y96.735 E0.11327
G1 X246.837 Y99.971 E0.10869
G1 X245.574 Y102.743 E0.09550
G1 X244.140 Y105.439 E0.09575
G1 X242.212 Y108.571 E0.11530
G1 X240.207 Y111.369 E0.10794
G1 X238.042 Y114.004 E0.10692
G1 X235.504 Y116.686 E0.11577
G1 X233.282 Y118.759 E0.09527
G1 X230.925 Y120.701 E0.09575
G1 X227.953 Y122.852 E0.11504
G1 X225.051 Y124.659 E0.10718
G1 X222.087 Y126.245 E0.10540
G1 X218.996 Y127.647 E0.10642
G1 X216.118 Y128.738 E0.09651
G1 X212.235 Y129.916 E0.12722
G1 X209.220 Y130.611 E0.09702
G1 X205.742 Y131.176 E0.11048
G1 X202.549 Y131.486 E0.10058
G1 X199.270 Y131.596 E0.10286
G1 X162.261 Y131.597 E1.16041
G1 X158.889 Y131.486 E0.10580
G1 X155.527 Y131.155 E0.10591
G1 X152.202 Y130.608 E0.10566
G1 X149.219 Y129.919 E0.09600
G1 X145.602 Y128.839 E0.11834
G1 X142.486 Y127.665 E0.10439
G1 X139.665 Y126.394 E0.09702
G1 X136.102 Y124.487 E0.12672
G1 X133.499 Y122.860 E0.09626
G1 X130.767 Y120.901 E0.10540
G1 X128.174 Y118.774 E0.10515
G1 X125.911 Y116.664 E0.09702
G1 X123.164 Y113.732 E0.12596
G1 X121.206 Y111.336 E0.09702
G1 X119.271 Y108.637 E0.10413
G1 X117.291 Y105.424 E0.11834
G1 X115.850 Y102.713 E0.09626
G1 X114.460 Y99.643 E0.10566
G1 X113.282 Y96.513 E0.10489
G1 X112.379 Y93.561 E0.09677
G1 X111.485 Y89.761 E0.12240
G1 X110.931 Y86.273 E0.11073
G1 X110.638 Y83.242 E0.09550
G1 X110.532 Y80.198 E0.09550
G1 X110.529 Y60.211 E0.62667
G1 X110.680 Y57.739 E0.07766
G1 X111.177 Y54.905 E0.09020
G1 X111.712 Y52.966 E0.06307
G1 X112.372 Y51.208 E0.05888
G1 X112.725 Y51.341 F9000.000
G1 F1200.000
G1 X113.904 Y48.879 E0.08560
G1 X115.405 Y46.505 E0.08803
G1 X117.032 Y44.486 E0.08131
G1 X118.870 Y42.656 E0.08131
G1 X121.059 Y40.924 E0.08753
G1 X122.828 Y39.791 E0.06586
G1 X124.643 Y38.850 E0.06411
G1 X127.385 Y37.760 E0.09252
G1 X130.251 Y37.026 E0.09276
G1 X132.280 Y36.719 E0.06436
G1 X134.345 Y36.597 E0.06486
G1 X226.678 Y36.589 E2.89502
G1 X229.146 Y36.717 E0.07751
G1 X231.552 Y37.093 E0.07633
G1 X233.951 Y37.727 E0.07782
G1 X235.986 Y38.487 E0.06810
G1 X238.427 Y39.687 E0.08529
G1 X240.270 Y40.852 E0.06834
G1 X241.125 Y41.474 E0.03317
G1 X243.013 Y43.073 E0.07755
G1 X244.488 Y44.578 E0.06610
G1 X246.046 Y46.521 E0.07807
G1 X247.361 Y48.561 E0.07608
G1 X248.503 Y50.818 E0.07932
G1 X249.371 Y53.092 E0.07633
G1 X250.012 Y55.482 E0.07758
G1 X250.402 Y57.934 E0.07783
G1 X250.534 Y60.324 E0.07508
G1 X250.535 Y79.910 E0.61408
G1 X250.416 Y83.335 E0.10747
G1 X250.093 Y86.577 E0.10215
G1 X249.541 Y89.909 E0.10589
G1 X248.776 Y93.182 E0.10539
G1 X247.726 Y96.600 E0.11212
G1 X246.490 Y99.822 E0.10821
G1 X245.237 Y102.575 E0.09483
G1 X243.807 Y105.261 E0.09541
G1 X241.899 Y108.360 E0.11411
G1 X239.905 Y111.144 E0.10739
G1 X237.578 Y113.954 E0.11436
G1 X235.494 Y116.171 E0.09541
G1 X233.289 Y118.245 E0.09491
G1 X230.475 Y120.577 E0.11461
G1 X227.718 Y122.555 E0.10639
G1 X224.857 Y124.335 E0.10564
G1 X221.914 Y125.909 E0.10464
G1 X218.853 Y127.298 E0.10539
G1 X215.985 Y128.385 E0.09616
G1 X212.153 Y129.548 E0.12558
G1 X209.149 Y130.241 E0.09666
G1 X205.698 Y130.802 E0.10963
G1 X202.519 Y131.110 E0.10015
G1 X199.271 Y131.219 E0.10190
G1 X162.261 Y131.219 E1.16040
G1 X158.907 Y131.109 E0.10522
G1 X155.570 Y130.781 E0.10514
G1 X152.277 Y130.238 E0.10464
G1 X149.304 Y129.552 E0.09566
G1 X145.726 Y128.482 E0.11711
G1 X142.632 Y127.318 E0.10364
G1 X139.822 Y126.051 E0.09666
G1 X136.295 Y124.163 E0.12541
G1 X133.710 Y122.548 E0.09558
G1 X130.998 Y120.603 E0.10464
G1 X128.423 Y118.492 E0.10439
G1 X126.169 Y116.389 E0.09665
G1 X123.453 Y113.489 E0.12459
G1 X121.502 Y111.102 E0.09666
G1 X119.568 Y108.402 E0.10414
G1 X117.800 Y105.562 E0.10489
G1 X116.356 Y102.874 E0.09566
G1 X114.807 Y99.494 E0.11661
G1 X113.636 Y96.385 E0.10414
G1 X112.740 Y93.452 E0.09616
G1 X111.855 Y89.685 E0.12134
G1 X111.305 Y86.232 E0.10963
G1 X111.013 Y83.211 E0.09516
G1 X110.909 Y80.186 E0.09491
G1 X110.906 Y60.223 E0.62591
G1 X111.054 Y57.788 E0.07651
G1 X111.543 Y54.999 E0.08877
G1 X112.071 Y53.081 E0.06237
G1 X112.704 Y51.397 E0.05640
G1 E-5.00000 F3600.000
G1 X140.400 Y100.830 F9000.000
G1 E5.00000 F2400.000
;TYPE:Perimeter
G1 F1200.000
G1 X141.436 Y100.489 E0.03421
G1 X142.000 Y100.449 E0.01772
G1 X142.531 Y100.416 E0.01670
G1 X143.603 Y100.617 E0.03420
G1 X144.594 Y101.080 E0.03428
G1 X145.443 Y101.780 E0.03453
G1 X146.099 Y102.703 E0.03548
G1 X146.485 Y103.676 E0.03282
G1 X146.622 Y104.760 E0.03426
G1 X146.485 Y105.844 E0.03426
G1 X146.099 Y106.817 E0.03282
G1 X145.443 Y107.739 E0.03548
G1 X144.595 Y108.438 E0.03447
G1 X143.647 Y108.885 E0.03285
G1 X142.536 Y109.105 E0.03552
G1 X141.441 Y109.032 E0.03441
G1 X140.443 Y108.708 E0.03288
G1 X139.483 Y108.104 E0.03556
G1 X138.738 Y107.302 E0.03434
G1 X138.232 Y106.382 E0.03291
G1 X137.950 Y105.287 E0.03545
G1 X137.950 Y104.237 E0.03293
G1 X138.215 Y103.176 E0.03429
G1 X138.764 Y102.183 E0.03558
G1 X139.482 Y101.418 E0.03290
G1 X140.349 Y100.862 E0.03228
G1 X140.553 Y101.180 F9000.000
G1 F1200.000
G1 X141.509 Y100.861 E0.03160
G1 X142.025 Y100.826 E0.01620
G1 X142.508 Y100.795 E0.01518
G1 X143.487 Y100.979 E0.03123
G1 X144.391 Y101.402 E0.03128
G1 X145.165 Y102.040 E0.03146
G1 X145.765 Y102.884 E0.03248
G1 X146.117 Y103.771 E0.02990
G1 X146.242 Y104.760 E0.03127
G1 X146.117 Y105.749 E0.03127
G1 X145.765 Y106.636 E0.02990
G1 X145.165 Y107.480 E0.03248
G1 X144.392 Y108.117 E0.03143
G1 X143.528 Y108.524 E0.02992
G1 X142.511 Y108.725 E0.03251
G1 X141.513 Y108.659 E0.03138
G1 X140.605 Y108.364 E0.02994
G1 X139.726 Y107.811 E0.03254
G1 X139.046 Y107.079 E0.03133
G1 X138.586 Y106.242 E0.02996
G1 X138.327 Y105.240 E0.03246
G1 X138.327 Y104.284 E0.02998
G1 X138.569 Y103.315 E0.03129
G1 X139.071 Y102.407 E0.03256
G1 X139.725 Y101.710 E0.02995
G1 X140.502 Y101.212 E0.02894
G1 X140.706 Y101.530 F9000.000
G1 F1200.000
G1 X141.582 Y101.234 E0.02900
G1 X142.485 Y101.174 E0.02835
G1 X143.370 Y101.341 E0.02826
G1 X144.188 Y101.723 E0.02829
G1 X144.887 Y102.299 E0.02840
G1 X145.432 Y103.065 E0.02948
G1 X145.748 Y103.865 E0.02697
G1 X145.862 Y104.760 E0.02828
G1 X145.748 Y105.655 E0.02828
G1 X145.432 Y106.454 E0.02697
G1 X144.887 Y107.221 E0.02948
G1 X144.188 Y107.796 E0.02838
G1 X143.410 Y108.163 E0.02698
G1 X142.487 Y108.346 E0.02950
G1 X141.585 Y108.286 E0.02835
G1 X140.766 Y108.020 E0.02700
G1 X139.969 Y107.518 E0.02952
G1 X139.354 Y106.857 E0.02831
G1 X138.939 Y106.102 E0.02701
G1 X138.704 Y105.192 E0.02947
G1 X138.704 Y104.330 E0.02702
G1 X138.923 Y103.455 E0.02829
G1 X139.379 Y102.630 E0.02953
G1 X139.968 Y102.002 E0.02701
G1 X140.655 Y101.562 E0.02559
G1 X140.859 Y101.879 F9000.000
;TYPE:External perimeter
G1 F1200.000
G1 X141.656 Y101.607 E0.02640
G1 X142.461 Y101.554 E0.02532
G1 X143.254 Y101.702 E0.02529
G1 X143.985 Y102.044 E0.02530
G1 X144.608 Y102.558 E0.02534
G1 X145.098 Y103.247 E0.02648
G1 X145.380 Y103.960 E0.02405
G1 X145.482 Y104.760 E0.02529
G1 X145.380 Y105.560 E0.02529
G1 X145.098 Y106.273 E0.02405
G1 X144.608 Y106.961 E0.02648
G1 X143.985 Y107.475 E0.02533
G1 X143.291 Y107.802 E0.02405
G1 X142.462 Y107.966 E0.02649
G1 X141.656 Y107.913 E0.02532
G1 X140.927 Y107.675 E0.02406
G1 X140.211 Y107.225 E0.02650
G1 X139.662 Y106.634 E0.02530
G1 X139.292 Y105.962 E0.02406
G1 X139.081 Y105.144 E0.02649
G1 X139.081 Y104.376 E0.02406
G1 X139.277 Y103.594 E0.02529
G1 X139.686 Y102.854 E0.02651
G1 X140.211 Y102.295 E0.02406
G1 X140.808 Y101.912 E0.02224
G1 X140.888 Y101.480 F9000.000
G1 E-5.00000 F3600.000
G1 X216.950 Y104.237 F9000.000
G1 E5.00000 F2400.000
;TYPE:Perimeter
G1 F1200.000
G1 X217.215 Y103.176 E0.03429
G1 X217.764 Y102.183 E0.03558
G1 X218.482 Y101.418 E0.03290
G1 X219.400 Y100.830 E0.03417
G1 X220.436 Y100.489 E0.03421
G1 X221.531 Y100.416 E0.03442
G1 X222.603 Y100.617 E0.03420
G1 X223.594 Y101.080 E0.03428
G1 X224.443 Y101.780 E0.03453
G1 X225.099 Y102.703 E0.03548
G1 X225.485 Y103.676 E0.03282
G1 X225.622 Y104.760 E0.03426
G1 X225.485 Y105.844 E0.03426
G1 X225.099 Y106.817 E0.03282
G1 X224.443 Y107.739 E0.03548
G1 X223.595 Y108.438 E0.03447
G1 X222.647 Y108.885 E0.03285
G1 X221.536 Y109.105 E0.03552
G1 X220.441 Y109.032 E0.03441
G1 X219.443 Y108.708 E0.03288
G1 X218.483 Y108.104 E0.03556
G1 X217.738 Y107.302 E0.03434
G1 X217.232 Y106.382 E0.03291
G1 X216.950 Y105.287 E0.03545
G1 X216.950 Y104.297 E0.03105
G1 X217.327 Y104.297 F9000.000
G1 F1200.000
G1 X217.569 Y103.315 E0.03170
G1 X218.071 Y102.407 E0.03255
G1 X218.725 Y101.710 E0.02995
G1 X219.563 Y101.173 E0.03120
G1 X220.509 Y100.861 E0.03123
G1 X221.508 Y100.795 E0.03138
G1 X222.487 Y100.979 E0.03123
G1 X223.391 Y101.402 E0.03128
G1 X224.165 Y102.040 E0.03146
G1 X224.765 Y102.884 E0.03248
G1 X225.117 Y103.770 E0.02990
G1 X225.242 Y104.760 E0.03127
G1 X225.117 Y105.749 E0.03127
G1 X224.765 Y106.636 E0.02990
G1 X224.165 Y107.480 E0.03248
G1 X223.392 Y108.117 E0.03143
G1 X222.528 Y108.524 E0.02992
G1 X221.511 Y108.725 E0.03251
G1 X220.513 Y108.659 E0.03138
G1 X219.605 Y108.364 E0.02994
G1 X218.726 Y107.811 E0.03254
G1 X218.046 Y107.079 E0.03133
G1 X217.586 Y106.242 E0.02996
G1 X217.327 Y105.240 E0.03246
G1 X217.327 Y104.357 E0.02767
G1 X217.704 Y104.357 F9000.000
G1 F1200.000
G1 X217.923 Y103.455 E0.02912
G1 X218.379 Y102.630 E0.02953
G1 X218.968 Y102.002 E0.02701
G1 X219.726 Y101.516 E0.02824
G1 X220.582 Y101.234 E0.02826
G1 X221.485 Y101.174 E0.02835
G1 X222.370 Y101.341 E0.02826
G1 X223.188 Y101.723 E0.02829
G1 X223.887 Y102.299 E0.02840
G1 X224.432 Y103.065 E0.02948
G1 X224.748 Y103.865 E0.02697
G1 X224.862 Y104.760 E0.02828
G1 X224.748 Y105.655 E0.02828
G1 X224.432 Y106.454 E0.02697
G1 X223.887 Y107.221 E0.02948
G1 X223.188 Y107.796 E0.02838
G1 X222.410 Y108.163 E0.02698
G1 X221.487 Y108.346 E0.02950
G1 X220.585 Y108.286 E0.02835
G1 X219.766 Y108.020 E0.02700
G1 X218.969 Y107.518 E0.02952
G1 X218.354 Y106.857 E0.02831
G1 X217.939 Y106.102 E0.02701
G1 X217.704 Y105.192 E0.02947
G1 X217.704 Y104.417 E0.02429
G1 X218.081 Y104.417 F9000.000
;TYPE:External perimeter
G1 F1200.000
G1 X218.277 Y103.594 E0.02653
G1 X218.686 Y102.854 E0.02651
G1 X219.211 Y102.295 E0.02406
G1 X219.890 Y101.859 E0.02528
G1 X220.656 Y101.607 E0.02528
G1 X221.461 Y101.554 E0.02532
G1 X222.254 Y101.702 E0.02529
G1 X222.985 Y102.044 E0.02530
G1 X223.608 Y102.558 E0.02534
G1 X224.098 Y103.247 E0.02648
G1 X224.380 Y103.960 E0.02405
G1 X224.482 Y104.760 E0.02529
G1 X224.380 Y105.560 E0.02529
G1 X224.098 Y106.273 E0.02405
G1 X223.608 Y106.961 E0.02648
G1 X222.985 Y107.475 E0.02533
G1 X222.291 Y107.802 E0.02405
G1 X221.462 Y107.966 E0.02649
G1 X220.656 Y107.913 E0.02532
G1 X219.927 Y107.675 E0.02406
G1 X219.211 Y107.225 E0.02650
G1 X218.662 Y106.634 E0.02530
G1 X218.292 Y105.962 E0.02406
G1 X218.081 Y105.144 E0.02649
G1 X218.081 Y104.477 E0.02091
G1 X217.759 Y104.180 F9000.000
G1 E-5.00000 F3600.000
G1 X220.536 Y61.105 F9000.000
G1 E5.00000 F2400.000
;TYPE:Perimeter
G1 F1200.000
G1 X219.441 Y61.032 E0.03441
G1 X218.443 Y60.708 E0.03288
G1 X217.483 Y60.104 E0.03556
G1 X216.738 Y59.302 E0.03434
G1 X216.232 Y58.382 E0.03291
G1 X215.950 Y57.287 E0.03545
G1 X215.950 Y56.237 E0.03293
G1 X216.215 Y55.176 E0.03429
G1 X216.764 Y54.183 E0.03558
G1 X217.482 Y53.418 E0.03290
