; generated by PrusaSlicer 2.3.3+win64 on 2021-12-14 at 07:12:52 UTC

; 

; external perimeters extrusion width = 0.45mm
; perimeters extrusion width = 0.45mm
; infill extrusion width = 0.45mm
; solid infill extrusion width = 0.45mm
; top infill extrusion width = 0.40mm
; first layer extrusion width = 0.42mm

M201 X500 Y500 Z100 E5000 ; sets maximum accelerations, mm/sec^2
M203 X500 Y500 Z10 E60 ; sets maximum feedrates, mm/sec
M204 P500 R1000 T500 ; sets acceleration (P, T) and retract acceleration (R), mm/sec^2
M205 X8.00 Y8.00 Z0.40 E5.00 ; sets the jerk limits, mm/sec
M205 S0 T0 ; sets the minimum extruding and travel feed rate, mm/sec
;TYPE:Custom
G90 ; use absolute coordinates
M83 ; extruder relative mode
M140 S60 ; set final bed temp
M104 S150 ; set temporary nozzle temp to prevent oozing during homing
G4 S10 ; allow partial nozzle warmup
G28 ; home all axis
G1 Z50 F240
G1 X2 Y10 F3000
M104 S210 ; set final nozzle temp
M190 S60 ; wait for bed temp to stabilize
M109 S210 ; wait for nozzle temp to stabilize
G1 Z0.28 F240
G92 E0
G1 Y140 E10 F1500 ; prime the nozzle
G1 X2.3 F5000
G92 E0
G1 Y10 E10 F1200 ; prime the nozzle
G92 E0
G21 ; set units to millimeters
G90 ; use absolute coordinates
M83 ; use relative distances for extrusion
; Filament gcode
M106 S255
;LAYER_CHANGE
;Z:0.2
;HEIGHT:0.2
;BEFORE_LAYER_CHANGE
G92 E0
;0.2


G1 Z0.200 F9000.000
;AFTER_LAYER_CHANGE
;0.2
G1 E-5.00000 F3600.000
G1 X95.276 Y31.151 F9000.000
G1 E5.00000 F2400.000
M204 S500
;TYPE:Skirt
;WIDTH:0.42
G1 F1200.000
G1 X95.459 Y29.400 E0.05522
G1 X95.717 Y28.398 E0.03244
G1 X96.090 Y27.422 E0.03276
G1 X96.984 Y25.846 E0.05678
G1 X98.120 Y24.515 E0.05491
G1 X99.494 Y23.412 E0.05522
G1 X101.091 Y22.568 E0.05663
G1 X102.770 Y22.056 E0.05506
G1 X103.789 Y21.904 E0.03228
G1 X104.823 Y21.866 E0.03244
G1 X106.637 Y22.075 E0.05725
G1 X108.311 Y22.605 E0.05506
G1 X109.861 Y23.440 E0.05522
G1 X111.271 Y24.594 E0.05710
G1 X111.964 Y25.362 E0.03244
G1 X112.566 Y26.203 E0.03244
G1 X113.373 Y27.780 E0.05553
G1 X113.878 Y29.524 E0.05694
G1 X114.036 Y31.338 E0.05710
G1 X113.852 Y33.093 E0.05532
G1 X113.595 Y34.092 E0.03233
G1 X113.220 Y35.072 E0.03291
G1 X112.325 Y36.647 E0.05678
G1 X111.177 Y37.989 E0.05538
G1 X109.810 Y39.083 E0.05491
G1 X108.198 Y39.931 E0.05710
G1 X107.220 Y40.269 E0.03244
G1 X106.201 Y40.497 E0.03276
G1 X104.404 Y40.623 E0.05647
G1 X102.636 Y40.406 E0.05585
G1 X100.913 Y39.847 E0.05679
G1 X99.372 Y38.995 E0.05522
G1 X98.550 Y38.367 E0.03244
G1 X97.800 Y37.647 E0.03260
G1 X96.694 Y36.206 E0.05694
G1 X95.909 Y34.635 E0.05506
G1 X95.431 Y32.950 E0.05491
G1 X95.281 Y31.211 E0.05475
G1 X95.654 Y31.179 F9000.000
G1 F1200.000
G1 X95.828 Y29.477 E0.05363
G1 X96.077 Y28.511 E0.03127
G1 X96.437 Y27.570 E0.03161
G1 X97.295 Y26.059 E0.05449
G1 X98.384 Y24.784 E0.05255
G1 X99.698 Y23.729 E0.05284
G1 X101.230 Y22.919 E0.05434
G1 X102.837 Y22.427 E0.05269
G1 X103.824 Y22.279 E0.03131
G1 X104.822 Y22.243 E0.03131
G1 X106.558 Y22.444 E0.05478
G1 X108.165 Y22.953 E0.05285
G1 X109.649 Y23.752 E0.05285
G1 X111.001 Y24.858 E0.05479
G1 X111.670 Y25.599 E0.03131
G1 X112.252 Y26.411 E0.03131
G1 X113.023 Y27.920 E0.05314
G1 X113.507 Y29.594 E0.05464
G1 X113.659 Y31.330 E0.05464
G1 X113.484 Y33.013 E0.05304
G1 X113.235 Y33.978 E0.03126
G1 X112.875 Y34.920 E0.03161
G1 X112.017 Y36.431 E0.05449
G1 X110.914 Y37.718 E0.05315
G1 X109.606 Y38.766 E0.05254
G1 X108.058 Y39.580 E0.05483
G1 X107.116 Y39.906 E0.03127
G1 X106.132 Y40.126 E0.03161
G1 X104.408 Y40.245 E0.05419
G1 X102.716 Y40.038 E0.05344
G1 X101.064 Y39.501 E0.05449
G1 X99.587 Y38.685 E0.05289
G1 X98.795 Y38.080 E0.03127
G1 X98.074 Y37.388 E0.03131
G1 X97.013 Y36.006 E0.05464
G1 X96.262 Y34.503 E0.05270
G1 X95.802 Y32.881 E0.05285
G1 X95.660 Y31.238 E0.05170
G1 X96.033 Y31.206 F9000.000
G1 F1200.000
G1 X96.196 Y29.561 E0.05181
G1 X96.435 Y28.629 E0.03018
G1 X96.782 Y27.722 E0.03046
G1 X97.604 Y26.275 E0.05218
G1 X98.647 Y25.054 E0.05034
G1 X99.902 Y24.045 E0.05048
G1 X101.369 Y23.269 E0.05204
G1 X102.909 Y22.797 E0.05048
G1 X103.860 Y22.654 E0.03018
G1 X104.822 Y22.620 E0.03018
G1 X106.480 Y22.813 E0.05232
G1 X108.019 Y23.300 E0.05062
G1 X109.437 Y24.064 E0.05048
G1 X110.732 Y25.122 E0.05247
G1 X111.377 Y25.837 E0.03018
G1 X111.937 Y26.619 E0.03018
G1 X112.675 Y28.065 E0.05090
G1 X113.136 Y29.660 E0.05204
G1 X113.282 Y31.322 E0.05232
G1 X113.115 Y32.932 E0.05074
G1 X112.875 Y33.865 E0.03020
G1 X112.528 Y34.772 E0.03046
G1 X111.707 Y36.215 E0.05204
G1 X110.655 Y37.445 E0.05077
G1 X109.402 Y38.449 E0.05034
G1 X107.926 Y39.227 E0.05232
G1 X107.016 Y39.543 E0.03018
G1 X106.068 Y39.755 E0.03046
G1 X104.412 Y39.868 E0.05204
G1 X102.797 Y39.669 E0.05105
G1 X101.218 Y39.157 E0.05204
G1 X99.808 Y38.380 E0.05048
G1 X99.043 Y37.796 E0.03018
G1 X98.345 Y37.126 E0.03032
G1 X97.330 Y35.801 E0.05232
G1 X96.613 Y34.365 E0.05034
G1 X96.173 Y32.816 E0.05048
G1 X96.038 Y31.266 E0.04880
G1 E-5.00000 F3600.000
G1 X101.591 Y31.092 F9000.000
G1 E5.00000 F2400.000
;TYPE:Perimeter
G1 F1200.000
G1 X101.682 Y30.487 E0.01916
G1 X101.891 Y29.913 E0.01916
G1 X102.209 Y29.392 E0.01916
G1 X102.625 Y28.944 E0.01916
G1 X103.121 Y28.587 E0.01916
G1 X103.678 Y28.335 E0.01916
G1 X104.274 Y28.199 E0.01916
G1 X104.885 Y28.184 E0.01916
G1 X105.487 Y28.290 E0.01916
G1 X106.056 Y28.514 E0.01916
G1 X106.569 Y28.845 E0.01916
G1 X107.007 Y29.272 E0.01916
G1 X107.351 Y29.777 E0.01916
G1 X107.589 Y30.340 E0.01916
G1 X107.710 Y30.939 E0.01916
G1 X107.710 Y31.550 E0.01916
G1 X107.589 Y32.149 E0.01916
G1 X107.361 Y32.690 E0.01840
G1 X107.176 Y32.992 E0.01110
G1 X106.799 Y33.442 E0.01840
G1 X106.321 Y33.823 E0.01916
G1 X105.777 Y34.102 E0.01916
G1 X105.189 Y34.267 E0.01916
G1 X104.579 Y34.313 E0.01916
G1 X103.973 Y34.237 E0.01916
G1 X103.394 Y34.042 E0.01916
G1 X102.864 Y33.737 E0.01916
G1 X102.406 Y33.332 E0.01916
G1 X102.037 Y32.845 E0.01916
G1 X101.772 Y32.294 E0.01916
G1 X101.621 Y31.702 E0.01916
G1 X101.594 Y31.152 E0.01728
G1 X101.970 Y31.133 F9000.000
G1 F1200.000
G1 X102.049 Y30.581 E0.01748
G1 X102.232 Y30.078 E0.01680
G1 X102.511 Y29.620 E0.01680
G1 X102.876 Y29.228 E0.01680
G1 X103.311 Y28.915 E0.01680
G1 X103.799 Y28.695 E0.01680
G1 X104.321 Y28.576 E0.01680
G1 X104.857 Y28.562 E0.01680
G1 X105.384 Y28.655 E0.01680
G1 X105.883 Y28.851 E0.01680
G1 X106.333 Y29.142 E0.01680
G1 X106.717 Y29.516 E0.01680
G1 X107.018 Y29.958 E0.01680
G1 X107.227 Y30.452 E0.01680
G1 X107.333 Y30.977 E0.01680
G1 X107.333 Y31.513 E0.01680
G1 X107.227 Y32.038 E0.01680
G1 X107.024 Y32.518 E0.01633
G1 X106.869 Y32.771 E0.00932
G1 X106.534 Y33.171 E0.01633
G1 X106.115 Y33.505 E0.01680
G1 X105.639 Y33.749 E0.01680
G1 X105.123 Y33.894 E0.01680
G1 X104.589 Y33.934 E0.01680
G1 X104.057 Y33.867 E0.01680
G1 X103.549 Y33.697 E0.01680
G1 X103.086 Y33.429 E0.01680
G1 X102.684 Y33.075 E0.01680
G1 X102.360 Y32.648 E0.01680
G1 X102.128 Y32.165 E0.01680
G1 X101.996 Y31.646 E0.01680
G1 X101.973 Y31.193 E0.01422
G1 X102.350 Y31.174 F9000.000
;TYPE:External perimeter
G1 F1200.000
G1 X102.416 Y30.674 E0.01580
G1 X102.574 Y30.242 E0.01443
G1 X102.814 Y29.849 E0.01443
G1 X103.127 Y29.512 E0.01443
G1 X103.500 Y29.243 E0.01443
G1 X103.920 Y29.054 E0.01443
G1 X104.369 Y28.952 E0.01443
G1 X104.829 Y28.940 E0.01443
G1 X105.282 Y29.020 E0.01443
G1 X105.710 Y29.188 E0.01443
G1 X106.097 Y29.438 E0.01443
G1 X106.426 Y29.759 E0.01443
G1 X106.686 Y30.139 E0.01443
G1 X106.864 Y30.564 E0.01443
G1 X106.956 Y31.015 E0.01443
G1 X106.956 Y31.475 E0.01443
G1 X106.864 Y31.926 E0.01443
G1 X106.688 Y32.345 E0.01427
G1 X106.562 Y32.551 E0.00755
G1 X106.270 Y32.899 E0.01426
G1 X105.910 Y33.186 E0.01443
G1 X105.500 Y33.396 E0.01443
G1 X105.057 Y33.521 E0.01443
G1 X104.598 Y33.555 E0.01443
G1 X104.142 Y33.498 E0.01443
G1 X103.705 Y33.351 E0.01443
G1 X103.307 Y33.121 E0.01443
G1 X102.962 Y32.817 E0.01443
G1 X102.684 Y32.450 E0.01443
G1 X102.484 Y32.035 E0.01443
G1 X102.371 Y31.589 E0.01443
G1 X102.353 Y31.234 E0.01115
G1 X102.011 Y30.962 F9000.000
G1 X100.480 Y30.988
;TYPE:Perimeter
G1 F1200.000
G1 X100.543 Y30.476 E0.01617
G1 X100.672 Y29.964 E0.01654
G1 X100.758 Y29.723 E0.00804
G1 X100.969 Y29.266 E0.01578
G1 X101.249 Y28.815 E0.01664
G1 X101.395 Y28.621 E0.00762
G1 X101.553 Y28.436 E0.00762
G1 X101.944 Y28.057 E0.01709
G1 X102.122 Y27.914 E0.00715
G1 X102.564 Y27.621 E0.01662
G1 X103.038 Y27.385 E0.01662
G1 X103.251 Y27.303 E0.00715
G1 X103.775 Y27.154 E0.01709
G1 X103.999 Y27.112 E0.00715
G1 X104.539 Y27.062 E0.01701
G1 X104.796 Y27.063 E0.00804
G1 X105.297 Y27.110 E0.01578
G1 X105.801 Y27.221 E0.01617
G1 X106.301 Y27.397 E0.01662
G1 X106.508 Y27.492 E0.00715
G1 X106.980 Y27.764 E0.01709
G1 X107.178 Y27.905 E0.00762
G1 X107.367 Y28.057 E0.00762
G1 X107.748 Y28.426 E0.01662
G1 X108.080 Y28.839 E0.01662
G1 X108.206 Y29.029 E0.00715
G1 X108.457 Y29.496 E0.01662
G1 X108.643 Y29.976 E0.01615
G1 X108.772 Y30.490 E0.01662
G1 X108.809 Y30.730 E0.00762
G1 X108.832 Y30.972 E0.00762
G1 X108.832 Y31.502 E0.01662
G1 X108.769 Y32.014 E0.01615
G1 X108.639 Y32.528 E0.01662
G1 X108.564 Y32.743 E0.00715
G1 X108.342 Y33.224 E0.01662
G1 X108.063 Y33.675 E0.01662
G1 X107.917 Y33.869 E0.00762
G1 X107.759 Y34.053 E0.00762
G1 X107.378 Y34.422 E0.01662
G1 X106.955 Y34.742 E0.01662
G1 X106.761 Y34.862 E0.00715
G1 X106.273 Y35.104 E0.01709
G1 X106.061 Y35.187 E0.00715
G1 X105.537 Y35.336 E0.01709
G1 X105.312 Y35.378 E0.00715
G1 X104.770 Y35.428 E0.01709
G1 X104.542 Y35.428 E0.00715
G1 X103.999 Y35.378 E0.01709
G1 X103.775 Y35.336 E0.00715
G1 X103.251 Y35.187 E0.01709
G1 X103.038 Y35.104 E0.00715
G1 X102.564 Y34.868 E0.01662
G1 X102.124 Y34.577 E0.01654
G1 X101.925 Y34.415 E0.00804
G1 X101.564 Y34.064 E0.01578
G1 X101.241 Y33.662 E0.01617
G1 X100.970 Y33.224 E0.01615
G1 X100.748 Y32.743 E0.01662
G1 X100.672 Y32.528 E0.00715
G1 X100.540 Y31.999 E0.01709
G1 X100.479 Y31.491 E0.01604
G1 X100.480 Y31.048 E0.01390
G1 X100.103 Y31.047 F9000.000
G1 F1200.000
G1 X100.172 Y30.407 E0.02021
G1 X100.311 Y29.855 E0.01785
G1 X100.409 Y29.580 E0.00914
G1 X100.637 Y29.087 E0.01703
G1 X100.937 Y28.601 E0.01791
G1 X101.101 Y28.384 E0.00853
G1 X101.278 Y28.178 E0.00853
G1 X101.694 Y27.774 E0.01818
G1 X101.899 Y27.609 E0.00824
G1 X102.375 Y27.294 E0.01789
G1 X102.886 Y27.040 E0.01789
G1 X103.131 Y26.945 E0.00824
G1 X103.689 Y26.786 E0.01818
G1 X103.947 Y26.738 E0.00824
G1 X104.523 Y26.684 E0.01813
G1 X104.815 Y26.686 E0.00914
G1 X105.355 Y26.737 E0.01703
G1 X105.904 Y26.857 E0.01762
G1 X106.443 Y27.047 E0.01789
G1 X106.681 Y27.157 E0.00824
G1 X107.183 Y27.447 E0.01818
G1 X107.405 Y27.604 E0.00853
G1 X107.617 Y27.774 E0.00853
G1 X108.027 Y28.172 E0.01789
G1 X108.385 Y28.616 E0.01789
G1 X108.530 Y28.835 E0.00824
G1 X108.800 Y29.338 E0.01789
G1 X109.003 Y29.862 E0.01761
G1 X109.142 Y30.415 E0.01789
G1 X109.184 Y30.684 E0.00853
G1 X109.209 Y30.955 E0.00853
G1 X109.209 Y31.526 E0.01789
G1 X109.140 Y32.083 E0.01761
G1 X109.001 Y32.636 E0.01789
G1 X108.913 Y32.884 E0.00824
G1 X108.675 Y33.403 E0.01789
G1 X108.374 Y33.888 E0.01789
G1 X108.211 Y34.105 E0.00853
G1 X108.034 Y34.312 E0.00853
G1 X107.624 Y34.709 E0.01789
G1 X107.168 Y35.053 E0.01789
G1 X106.945 Y35.191 E0.00824
G1 X106.426 Y35.450 E0.01818
G1 X106.181 Y35.545 E0.00824
G1 X105.623 Y35.703 E0.01818
G1 X105.365 Y35.752 E0.00824
G1 X104.787 Y35.805 E0.01818
G1 X104.524 Y35.805 E0.00824
G1 X103.947 Y35.752 E0.01818
G1 X103.689 Y35.703 E0.00824
G1 X103.131 Y35.545 E0.01818
G1 X102.886 Y35.450 E0.00824
G1 X102.375 Y35.195 E0.01789
G1 X101.901 Y34.881 E0.01785
G1 X101.674 Y34.697 E0.00914
G1 X101.285 Y34.318 E0.01703
G1 X100.933 Y33.880 E0.01762
G1 X100.637 Y33.403 E0.01761
G1 X100.398 Y32.884 E0.01789
G1 X100.311 Y32.636 E0.00824
G1 X100.170 Y32.074 E0.01818
G1 X100.102 Y31.507 E0.01790
G1 X100.103 Y31.107 E0.01254
G1 X99.725 Y31.107 F9000.000
;TYPE:External perimeter
G1 F1200.000
G1 X99.726 Y30.941 E0.00520
G1 X99.800 Y30.337 E0.01907
G1 X99.949 Y29.745 E0.01915
G1 X100.060 Y29.437 E0.01025
G1 X100.304 Y28.908 E0.01827
G1 X100.626 Y28.388 E0.01918
G1 X100.807 Y28.148 E0.00944
G1 X101.003 Y27.919 E0.00944
G1 X101.444 Y27.491 E0.01927
G1 X101.676 Y27.305 E0.00934
G1 X102.186 Y26.967 E0.01917
G1 X102.733 Y26.694 E0.01917
G1 X103.011 Y26.587 E0.00934
G1 X103.602 Y26.419 E0.01927
G1 X103.895 Y26.364 E0.00934
G1 X104.506 Y26.307 E0.01925
G1 X104.833 Y26.309 E0.01025
G1 X105.413 Y26.364 E0.01827
G1 X106.008 Y26.494 E0.01907
G1 X106.584 Y26.697 E0.01917
G1 X106.855 Y26.821 E0.00934
G1 X107.387 Y27.129 E0.01927
G1 X107.633 Y27.303 E0.00944
G1 X107.867 Y27.491 E0.00944
G1 X108.306 Y27.917 E0.01917
G1 X108.690 Y28.393 E0.01917
G1 X108.854 Y28.642 E0.00934
G1 X109.143 Y29.180 E0.01917
G1 X109.363 Y29.747 E0.01907
G1 X109.512 Y30.340 E0.01917
G1 X109.558 Y30.638 E0.00944
G1 X109.586 Y30.937 E0.00944
G1 X109.586 Y31.549 E0.01917
G1 X109.511 Y32.152 E0.01907
G1 X109.362 Y32.745 E0.01917
G1 X109.263 Y33.026 E0.00934
G1 X109.008 Y33.582 E0.01917
G1 X108.686 Y34.101 E0.01917
G1 X108.504 Y34.342 E0.00944
G1 X108.309 Y34.570 E0.00944
G1 X107.870 Y34.996 E0.01917
G1 X107.382 Y35.364 E0.01917
G1 X107.129 Y35.521 E0.00934
G1 X106.578 Y35.795 E0.01927
G1 X106.301 Y35.903 E0.00934
G1 X105.709 Y36.071 E0.01927
G1 X105.417 Y36.126 E0.00934
G1 X104.805 Y36.182 E0.01927
G1 X104.507 Y36.182 E0.00934
G1 X103.895 Y36.126 E0.01927
G1 X103.602 Y36.071 E0.00934
G1 X103.011 Y35.903 E0.01927
G1 X102.733 Y35.795 E0.00934
G1 X102.186 Y35.523 E0.01917
G1 X101.677 Y35.185 E0.01915
G1 X101.423 Y34.979 E0.01025
G1 X101.006 Y34.573 E0.01827
G1 X100.624 Y34.099 E0.01907
G1 X100.304 Y33.582 E0.01907
G1 X100.049 Y33.026 E0.01917
G1 X99.950 Y32.745 E0.00934
G1 X99.800 Y32.149 E0.01927
G1 X99.725 Y31.524 E0.01976
G1 X99.725 Y31.167 E0.01119
G1 X99.867 Y31.021 F9000.000
G1 E-5.00000 F3600.000
G1 X108.235 Y29.322 F9000.000
G1 E5.00000 F2400.000
;TYPE:Solid infill
;WIDTH:0.431986
G1 F1200.000
G1 X107.264 Y28.351 E0.04442
G1 X107.008 Y28.131 E0.01093
G1 X106.827 Y28.003 E0.00715
G1 X106.378 Y27.743 E0.01678
G1 X105.928 Y27.565 E0.01565
G1 X108.340 Y29.977 E0.11033
G1 X108.495 Y30.547 E0.01910
G1 X108.520 Y30.707 E0.00524
G1 X107.708 Y29.895 E0.03714
G1 X107.601 Y29.641 E0.00892
G1 X107.225 Y29.089 E0.02160
G1 X106.747 Y28.623 E0.02160
G1 X106.186 Y28.261 E0.02160
G1 X106.001 Y28.188 E0.00642
G1 X105.198 Y27.385 E0.03676
G1 X104.607 Y27.345 E0.01914
G1 X105.218 Y27.956 E0.02796
G1 X104.906 Y27.901 E0.01025
G1 X104.620 Y27.908 E0.00926
G1 X104.099 Y27.386 E0.02386
G1 X103.840 Y27.429 E0.00849
G1 X103.646 Y27.484 E0.00651
G1 X104.109 Y27.947 E0.02118
G1 X103.661 Y28.049 E0.01487
G1 X103.227 Y27.615 E0.01986
G1 X103.153 Y27.644 E0.00258
G1 X102.854 Y27.793 E0.01078
G1 X103.271 Y28.209 E0.01906
G1 X102.979 Y28.341 E0.01035
G1 X102.905 Y28.394 E0.00295
G1 X102.509 Y27.997 E0.01815
G1 X102.186 Y28.225 E0.01277
G1 X102.585 Y28.624 E0.01824
G1 X102.437 Y28.731 E0.00590
G1 X102.295 Y28.884 E0.00677
G1 X101.903 Y28.492 E0.01795
G1 X101.636 Y28.775 E0.01259
G1 X102.030 Y29.169 E0.01804
G1 X101.811 Y29.501 E0.01285
G1 X101.407 Y29.096 E0.01850
G1 X101.200 Y29.440 E0.01297
G1 X101.612 Y29.852 E0.01883
G1 X101.465 Y30.255 E0.01389
G1 X101.027 Y29.817 E0.02007
G1 X100.943 Y30.047 E0.00793
G1 X100.895 Y30.235 E0.00629
G1 X101.363 Y30.703 E0.02141
G1 X101.307 Y31.078 E0.01225
G1 X101.313 Y31.203 E0.00407
G1 X100.801 Y30.692 E0.02341
G1 X100.763 Y31.006 E0.01023
G1 X100.762 Y31.203 E0.00638
G1 X101.587 Y32.028 E0.03775
G1 E-5.00000 F3600.000
G1 X107.730 Y30.467 F9000.000
G1 E5.00000 F2400.000
G1 F1200.000
G1 X108.549 Y31.287 E0.03749
G1 X108.549 Y31.485 E0.00642
G1 X108.510 Y31.798 E0.01021
G1 X107.993 Y31.280 E0.02369
G1 X107.993 Y31.579 E0.00965
G1 X107.950 Y31.788 E0.00691
G1 X108.416 Y32.254 E0.02133
G1 X108.301 Y32.636 E0.01291
G1 X108.284 Y32.673 E0.00129
G1 X107.856 Y32.244 E0.01962
G1 X107.693 Y32.631 E0.01359
G1 X108.111 Y33.049 E0.01915
G1 X107.905 Y33.393 E0.01297
G1 X107.506 Y32.995 E0.01824
G1 X107.406 Y33.158 E0.00618
G1 X107.275 Y33.314 E0.00660
G1 X107.676 Y33.715 E0.01834
G1 X107.409 Y33.998 E0.01259
G1 X107.024 Y33.613 E0.01761
G1 X106.724 Y33.863 E0.01264
G1 X107.122 Y34.261 E0.01820
G1 X106.808 Y34.498 E0.01271
