; generated by PrusaSlicer 2.3.3+win64 on 2021-12-07 at 17:35:23 UTC

; 

; external perimeters extrusion width = 0.45mm
; perimeters extrusion width = 0.45mm
; infill extrusion width = 0.45mm
; solid infill extrusion width = 0.45mm
; top infill extrusion width = 0.45mm
; support material extrusion width = 0.38mm
; first layer extrusion width = 0.42mm

M201 X500 Y500 Z100 E5000 ; sets maximum accelerations, mm/sec^2
M203 X500 Y500 Z10 E60 ; sets maximum feedrates, mm/sec
M204 P500 R1000 T500 ; sets acceleration (P, T) and retract acceleration (R), mm/sec^2
M205 X8.00 Y8.00 Z0.40 E5.00 ; sets the jerk limits, mm/sec
M205 S0 T0 ; sets the minimum extruding and travel feed rate, mm/sec
;TYPE:Custom
G90 ; use absolute coordinates
M83 ; extruder relative mode
M140 S50 ; set final bed temp
M104 S150 ; set temporary nozzle temp to prevent oozing during homing
G4 S10 ; allow partial nozzle warmup
G28 ; home all axis
G1 Z50 F240
G1 X2 Y10 F3000
M104 S230 ; set final nozzle temp
M190 S50 ; wait for bed temp to stabilize
M109 S230 ; wait for nozzle temp to stabilize
G1 Z0.28 F240
G92 E0
G1 Y140 E10 F1500 ; prime the nozzle
G1 X2.3 F5000
G92 E0
G1 Y10 E10 F1200 ; prime the nozzle
G92 E0
G21 ; set units to millimeters
G90 ; use absolute coordinates
M83 ; use relative distances for extrusion
; Filament gcode
M106 S255
;LAYER_CHANGE
;Z:0.2
;HEIGHT:0.2
;BEFORE_LAYER_CHANGE
G92 E0
;0.2


G1 Z0.200 F9000.000
;AFTER_LAYER_CHANGE
;0.2
G1 X84.999 Y52.691
M204 S500
;TYPE:Skirt
;WIDTH:0.42
G1 F1200.000
G1 X85.292 Y51.816 E0.02895
G1 X87.587 Y47.267 E0.15976
G1 X87.990 Y46.664 E0.02273
G1 X101.738 Y32.501 E0.61890
G1 X102.241 Y32.077 E0.02061
G1 X107.195 Y29.499 E0.17510
G1 X108.108 Y29.204 E0.03008
G1 X119.267 Y29.155 E0.34990
G1 X119.983 Y29.233 E0.02259
G1 X120.663 Y29.459 E0.02245
G1 X125.474 Y31.863 E0.16864
G1 X126.078 Y32.264 E0.02273
G1 X140.285 Y46.450 E0.62949
G1 X140.706 Y46.966 E0.02089
G1 X141.060 Y47.666 E0.02457
G1 X142.787 Y52.372 E0.15719
G1 X142.951 Y53.073 E0.02259
G1 X142.977 Y64.276 E0.35124
G1 X142.918 Y64.894 E0.01947
G1 X142.624 Y65.769 E0.02895
G1 X140.330 Y70.319 E0.15976
G1 X139.927 Y70.921 E0.02273
G1 X126.178 Y85.085 E0.61890
G1 X125.649 Y85.526 E0.02160
G1 X120.718 Y88.089 E0.17425
G1 X119.778 Y88.387 E0.03092
G1 X114.812 Y88.599 E0.15584
G1 X112.445 Y88.600 E0.07420
G1 X108.026 Y88.371 E0.13876
G1 X107.155 Y88.079 E0.02881
G1 X102.438 Y85.721 E0.16534
G1 X101.804 Y85.292 E0.02401
G1 X87.632 Y71.135 E0.62808
G1 X87.188 Y70.585 E0.02217
G1 X86.873 Y69.962 E0.02188
G1 X85.145 Y65.256 E0.15719
G1 X84.965 Y64.507 E0.02415
G1 X84.940 Y53.310 E0.35109
G1 X84.993 Y52.751 E0.01759
G1 X88.317 Y53.319 F9000.000
;TYPE:Support material
G1 F1200.000
G1 X88.317 Y64.097 E0.33793
G1 X89.071 Y64.097 E0.02365
G1 X89.071 Y53.489 E0.33261
G1 X89.825 Y53.489 E0.02365
G1 X89.825 Y64.097 E0.33261
G1 X90.026 Y64.097 E0.00630
G1 X90.026 Y68.754 E0.14602
G1 X90.579 Y68.754 E0.01734
G1 X90.579 Y48.832 E0.62465
G1 X91.333 Y48.832 E0.02365
G1 X91.333 Y68.754 E0.62465
G1 X92.088 Y68.754 E0.02365
G1 X92.088 Y48.832 E0.62465
G1 X92.842 Y48.832 E0.02365
G1 X92.842 Y68.754 E0.62465
G1 X93.596 Y68.754 E0.02365
G1 X93.596 Y48.832 E0.62465
G1 X94.350 Y48.832 E0.02365
G1 X94.350 Y68.754 E0.62465
G1 X95.104 Y68.754 E0.02365
G1 X95.104 Y48.832 E0.62465
G1 X95.858 Y48.832 E0.02365
G1 X95.858 Y68.754 E0.62465
G1 X96.613 Y68.754 E0.02365
G1 X96.613 Y48.832 E0.62465
G1 X97.367 Y48.832 E0.02365
G1 X97.367 Y68.754 E0.62465
G1 X98.121 Y68.754 E0.02365
G1 X98.121 Y48.832 E0.62465
G1 X98.875 Y48.832 E0.02365
G1 X98.875 Y68.754 E0.62465
G1 X99.629 Y68.754 E0.02365
G1 X99.629 Y48.832 E0.62465
G1 X100.383 Y48.832 E0.02365
G1 X100.383 Y68.754 E0.62465
G1 X101.138 Y68.754 E0.02365
G1 X101.138 Y48.832 E0.62465
G1 X101.892 Y48.832 E0.02365
G1 X101.892 Y68.754 E0.62465
G1 X102.646 Y68.754 E0.02365
G1 X102.646 Y48.832 E0.62465
G1 X103.400 Y48.832 E0.02365
G1 X103.400 Y68.754 E0.62465
G1 X103.997 Y68.754 E0.01872
G1 X103.997 Y82.725 E0.43805
G1 X104.154 Y82.725 E0.00492
G1 X104.154 Y34.861 E1.50075
G1 X104.908 Y34.861 E0.02365
G1 X104.908 Y82.725 E1.50075
G1 X105.662 Y82.725 E0.02365
G1 X105.662 Y34.861 E1.50075
G1 X106.417 Y34.861 E0.02365
G1 X106.417 Y82.725 E1.50075
G1 X107.171 Y82.725 E0.02365
G1 X107.171 Y34.861 E1.50075
G1 X107.925 Y34.861 E0.02365
G1 X107.925 Y82.725 E1.50075
G1 X108.654 Y82.725 E0.02286
G1 X108.654 Y85.053 E0.07301
G1 X108.679 Y85.053 E0.00078
G1 X108.679 Y32.532 E1.64676
G1 X109.433 Y32.532 E0.02365
G1 X109.433 Y85.053 E1.64676
G1 X110.187 Y85.053 E0.02365
G1 X110.187 Y32.532 E1.64676
G1 X110.942 Y32.532 E0.02365
G1 X110.942 Y85.053 E1.64676
G1 X111.696 Y85.053 E0.02365
G1 X111.696 Y32.532 E1.64676
G1 X112.450 Y32.532 E0.02365
G1 X112.450 Y85.223 E1.65208
G1 X114.712 Y85.223 F9000.000
G1 F1200.000
G1 X114.712 Y59.625 E0.80262
G1 X114.538 Y59.756 E0.00686
G1 X114.362 Y59.842 E0.00615
G1 X114.173 Y59.896 E0.00614
G1 X113.958 Y59.917 E0.00677
G1 X113.958 Y85.053 E0.78814
G1 X113.204 Y85.053 E0.02365
G1 X113.204 Y59.625 E0.79729
G1 X113.084 Y59.500 E0.00542
G1 X112.995 Y59.372 E0.00489
G1 X112.909 Y59.196 E0.00615
G1 X112.848 Y58.968 E0.00739
G1 X112.834 Y58.773 E0.00614
G1 X112.855 Y58.578 E0.00614
G1 X112.909 Y58.389 E0.00614
G1 X112.995 Y58.213 E0.00614
G1 X113.084 Y58.085 E0.00489
G1 X113.204 Y57.961 E0.00542
G1 X113.204 Y32.532 E0.79730
G1 X113.958 Y32.532 E0.02365
G1 X113.958 Y57.669 E0.78814
G1 X114.173 Y57.689 E0.00677
G1 X114.362 Y57.743 E0.00614
G1 X114.538 Y57.829 E0.00614
G1 X114.712 Y57.961 E0.00686
G1 X114.712 Y32.532 E0.79730
G1 X115.467 Y32.532 E0.02365
G1 X115.467 Y85.053 E1.64676
G1 X116.221 Y85.053 E0.02365
G1 X116.221 Y32.532 E1.64676
G1 X116.975 Y32.532 E0.02365
G1 X116.975 Y85.053 E1.64676
G1 X117.729 Y85.053 E0.02365
G1 X117.729 Y32.532 E1.64676
G1 X118.483 Y32.532 E0.02365
G1 X118.483 Y85.053 E1.64676
G1 X119.237 Y85.053 E0.02365
G1 X119.237 Y32.532 E1.64676
G1 X119.262 Y32.532 E0.00078
G1 X119.262 Y34.861 E0.07301
G1 X119.992 Y34.861 E0.02286
G1 X119.992 Y82.725 E1.50075
G1 X120.746 Y82.725 E0.02365
G1 X120.746 Y34.861 E1.50075
G1 X121.500 Y34.861 E0.02365
G1 X121.500 Y82.725 E1.50075
G1 X122.254 Y82.725 E0.02365
G1 X122.254 Y34.861 E1.50075
G1 X123.008 Y34.861 E0.02365
G1 X123.008 Y82.725 E1.50075
G1 X123.762 Y82.725 E0.02365
G1 X123.762 Y34.861 E1.50075
G1 X123.919 Y34.861 E0.00492
G1 X123.919 Y48.832 E0.43805
G1 X124.516 Y48.832 E0.01872
G1 X124.516 Y68.754 E0.62465
G1 X125.271 Y68.754 E0.02365
G1 X125.271 Y48.832 E0.62465
G1 X126.025 Y48.832 E0.02365
G1 X126.025 Y68.754 E0.62465
G1 X126.779 Y68.754 E0.02365
G1 X126.779 Y48.832 E0.62465
G1 X127.533 Y48.832 E0.02365
G1 X127.533 Y68.754 E0.62465
G1 X128.287 Y68.754 E0.02365
G1 X128.287 Y48.832 E0.62465
G1 X129.041 Y48.832 E0.02365
G1 X129.041 Y68.754 E0.62465
G1 X129.796 Y68.754 E0.02365
G1 X129.796 Y48.832 E0.62465
G1 X130.550 Y48.832 E0.02365
G1 X130.550 Y68.754 E0.62465
G1 X131.304 Y68.754 E0.02365
G1 X131.304 Y48.832 E0.62465
G1 X132.058 Y48.832 E0.02365
G1 X132.058 Y68.754 E0.62465
G1 X132.812 Y68.754 E0.02365
G1 X132.812 Y48.832 E0.62465
G1 X133.566 Y48.832 E0.02365
G1 X133.566 Y68.754 E0.62465
G1 X134.321 Y68.754 E0.02365
G1 X134.321 Y48.832 E0.62465
G1 X135.075 Y48.832 E0.02365
G1 X135.075 Y68.754 E0.62465
G1 X135.829 Y68.754 E0.02365
G1 X135.829 Y48.832 E0.62465
G1 X136.583 Y48.832 E0.02365
G1 X136.583 Y68.754 E0.62465
G1 X137.337 Y68.754 E0.02365
G1 X137.337 Y48.832 E0.62465
G1 X137.890 Y48.832 E0.01734
G1 X137.890 Y53.489 E0.14602
G1 X138.091 Y53.489 E0.00630
G1 X138.091 Y64.097 E0.33261
G1 X138.845 Y64.097 E0.02365
G1 X138.845 Y53.489 E0.33261
G1 X139.600 Y53.489 E0.02365
G1 X139.600 Y64.266 E0.33793
G1 X114.027 Y58.805 F9000.000
;TYPE:Perimeter
G1 F1200.000
G1 X113.993 Y58.853 E0.00184
G1 X113.946 Y58.861 E0.00149
G1 X113.918 Y58.851 E0.00095
G1 X113.890 Y58.805 E0.00168
G1 X113.898 Y58.758 E0.00149
G1 X113.942 Y58.723 E0.00177
G1 X113.982 Y58.723 E0.00123
G1 X114.012 Y58.749 E0.00125
G1 X114.254 Y58.460 F9000.000
;TYPE:External perimeter
G1 F1200.000
G1 X114.347 Y58.558 E0.00422
G1 X114.404 Y58.714 E0.00522
G1 X114.404 Y58.871 E0.00493
G1 X114.312 Y59.077 E0.00708
G1 X114.184 Y59.184 E0.00522
G1 X114.037 Y59.238 E0.00493
G1 X113.880 Y59.238 E0.00493
G1 X113.674 Y59.146 E0.00708
G1 X113.566 Y59.019 E0.00522
G1 X113.513 Y58.871 E0.00493
G1 X113.513 Y58.714 E0.00493
G1 X113.566 Y58.567 E0.00493
G1 X113.667 Y58.446 E0.00493
G1 X113.872 Y58.347 E0.00713
G1 X114.018 Y58.345 E0.00458
G1 X114.118 Y58.367 E0.00320
G1 X114.208 Y58.421 E0.00331
G1 X114.232 Y58.592 F9000.000
;LAYER_CHANGE
;Z:0.44
;HEIGHT:0.24
;BEFORE_LAYER_CHANGE
G92 E0
;0.44


G1 Z0.440 F9000.000
;AFTER_LAYER_CHANGE
;0.44
G1 X108.108 Y29.204
;TYPE:Skirt
G1 F900
G1 X119.267 Y29.155 E0.41032
G1 X119.983 Y29.233 E0.02649
G1 X120.663 Y29.459 E0.02633
G1 X125.474 Y31.863 E0.19776
G1 X126.078 Y32.264 E0.02666
G1 X140.285 Y46.450 E0.73820
G1 X140.706 Y46.966 E0.02450
G1 X141.060 Y47.666 E0.02881
G1 X142.787 Y52.372 E0.18433
G1 X142.951 Y53.073 E0.02649
G1 X142.977 Y64.276 E0.41189
G1 X142.918 Y64.894 E0.02284
G1 X142.624 Y65.769 E0.03395
G1 X140.330 Y70.319 E0.18734
G1 X139.927 Y70.921 E0.02666
G1 X126.178 Y85.085 E0.72578
G1 X125.649 Y85.526 E0.02533
G1 X120.718 Y88.089 E0.20434
G1 X119.778 Y88.387 E0.03626
G1 X114.812 Y88.599 E0.18275
G1 X112.445 Y88.600 E0.08701
G1 X108.026 Y88.371 E0.16272
G1 X107.155 Y88.079 E0.03378
G1 X102.438 Y85.721 E0.19389
G1 X101.804 Y85.292 E0.02815
G1 X87.632 Y71.135 E0.73653
G1 X87.188 Y70.585 E0.02599
G1 X86.873 Y69.962 E0.02566
G1 X85.145 Y65.256 E0.18433
G1 X84.965 Y64.507 E0.02832
G1 X84.940 Y53.310 E0.41172
G1 X84.999 Y52.691 E0.02284
G1 X85.292 Y51.816 E0.03395
G1 X87.587 Y47.267 E0.18734
G1 X87.990 Y46.664 E0.02666
G1 X101.738 Y32.501 E0.72578
G1 X102.241 Y32.077 E0.02417
G1 X107.195 Y29.499 E0.20533
G1 X108.050 Y29.222 E0.03306
G1 X113.855 Y58.210 F9000.000
;TYPE:Perimeter
;WIDTH:0.45
G1 F900
G1 X114.052 Y58.209 E0.00781
G1 X114.163 Y58.238 E0.00458
G1 X114.339 Y58.339 E0.00806
G1 X114.471 Y58.497 E0.00818
G1 X114.541 Y58.690 E0.00818
G1 X114.550 Y58.793 E0.00410
G1 X114.515 Y58.995 E0.00818
G1 X114.412 Y59.173 E0.00818
G1 X114.254 Y59.305 E0.00818
G1 X114.061 Y59.376 E0.00818
G1 X113.958 Y59.385 E0.00410
G1 X113.756 Y59.349 E0.00818
G1 X113.578 Y59.246 E0.00818
G1 X113.445 Y59.089 E0.00818
G1 X113.375 Y58.896 E0.00818
G1 X113.375 Y58.690 E0.00818
G1 X113.445 Y58.497 E0.00818
G1 X113.578 Y58.339 E0.00818
G1 X113.662 Y58.280 E0.00410
G1 X113.797 Y58.225 E0.00580
G1 X113.026 Y59.132 F9000.000
M204 S250
;TYPE:Overhang perimeter
;WIDTH:0.389872
;HEIGHT:0.389872
G1 F1500.000
G1 X112.981 Y58.965 E0.00858
G1 X112.966 Y58.793 E0.00858
G1 X112.981 Y58.620 E0.00858
G1 X113.026 Y58.453 E0.00858
G1 X113.099 Y58.297 E0.00858
G1 X113.198 Y58.155 E0.00858
G1 X113.321 Y58.033 E0.00858
G1 X113.462 Y57.933 E0.00858
G1 X113.619 Y57.860 E0.00858
G1 X113.786 Y57.816 E0.00858
G1 X113.958 Y57.801 E0.00858
G1 X114.120 Y57.815 E0.00804
G1 X114.299 Y57.861 E0.00917
G1 X114.454 Y57.933 E0.00853
G1 X114.596 Y58.033 E0.00858
G1 X114.718 Y58.155 E0.00858
G1 X114.817 Y58.297 E0.00858
G1 X114.891 Y58.453 E0.00858
G1 X114.935 Y58.620 E0.00858
G1 X114.950 Y58.793 E0.00858
G1 X114.935 Y58.965 E0.00858
G1 X114.891 Y59.132 E0.00858
G1 X114.817 Y59.289 E0.00858
G1 X114.718 Y59.430 E0.00858
G1 X114.596 Y59.553 E0.00858
G1 X114.454 Y59.652 E0.00858
G1 X114.298 Y59.725 E0.00858
G1 X114.131 Y59.770 E0.00858
G1 X113.958 Y59.785 E0.00858
G1 X113.786 Y59.770 E0.00858
G1 X113.619 Y59.725 E0.00858
G1 X113.462 Y59.652 E0.00858
G1 X113.321 Y59.553 E0.00858
G1 X113.198 Y59.430 E0.00858
G1 X113.051 Y59.186 E0.01414
M204 S500
G1 X114.411 Y58.693 F9000.000
;TYPE:Solid infill
;WIDTH:0.529698
;HEIGHT:0.24
G1 F900
G1 X114.037 Y59.067 E0.02527
G1 X113.921 Y59.081 E0.00559
G1 X113.814 Y59.043 E0.00542
G1 X113.737 Y58.978 E0.00478
G1 X113.687 Y58.891 E0.00478
G1 X113.669 Y58.759 E0.00638
G1 X114.082 Y58.346 E0.02786
;LAYER_CHANGE
;Z:0.462516
;HEIGHT:0.022516
;BEFORE_LAYER_CHANGE
G92 E0
;0.462516


G1 Z0.463 F9000.000
;AFTER_LAYER_CHANGE
;0.462516
G1 X121.092 Y68.107
;TYPE:Support material
;WIDTH:0.38
;HEIGHT:0.262516
G1 F1670
G1 X106.973 Y68.107 E0.49875
G1 X106.973 Y70.435 E0.08225
G1 X120.944 Y70.435 E0.49353
G1 X120.944 Y72.764 E0.08225
G1 X106.973 Y72.764 E0.49353
G1 X106.973 Y75.092 E0.08225
G1 X120.944 Y75.092 E0.49353
G1 X120.944 Y77.421 E0.08225
G1 X106.973 Y77.421 E0.49353
G1 X106.973 Y79.749 E0.08225
G1 X120.944 Y79.749 E0.49353
G1 X116.287 Y79.749 E0.16451
G1 X116.287 Y82.078 E0.08225
G1 X111.482 Y82.078 E0.16973
G1 X135.063 Y51.807 F9000.000
G1 F1670
G1 X116.287 Y51.807 E0.66326
G1 X116.287 Y54.136 E0.08225
G1 X134.915 Y54.136 E0.65804
G1 X134.915 Y56.464 E0.08225
G1 X137.243 Y56.464 E0.08225
G1 X116.287 Y56.464 E0.74029
G1 X123.272 Y56.464 E0.24676
G1 X123.272 Y58.793 E0.08225
G1 X137.243 Y58.793 E0.49353
G1 X137.243 Y61.121 E0.08225
G1 X116.287 Y61.121 E0.74029
G1 X116.287 Y63.450 E0.08225
G1 X134.915 Y63.450 E0.65804
G1 X134.915 Y65.778 E0.08225
G1 X116.287 Y65.778 E0.65804
G1 X116.287 Y68.107 E0.08225
G1 X111.630 Y68.107 E0.16451
G1 X111.630 Y65.778 E0.08225
G1 X93.002 Y65.778 E0.65804
G1 X93.002 Y63.450 E0.08225
G1 X111.630 Y63.450 E0.65804
G1 X111.630 Y61.121 E0.08225
G1 X90.673 Y61.121 E0.74029
G1 X90.673 Y58.793 E0.08225
G1 X104.644 Y58.793 E0.49353
G1 X104.644 Y56.464 E0.08225
G1 X111.630 Y56.464 E0.24676
G1 X90.673 Y56.464 E0.74029
G1 X93.002 Y56.464 E0.08225
G1 X93.002 Y54.136 E0.08225
G1 X111.630 Y54.136 E0.65804
G1 X111.630 Y51.807 E0.08225
G1 X93.002 Y51.807 E0.65804
G1 X106.973 Y51.807 E0.49353
G1 X106.973 Y49.479 E0.08225
G1 X120.944 Y49.479 E0.49353
G1 X120.944 Y47.150 E0.08225
G1 X106.973 Y47.150 E0.49353
G1 X106.973 Y44.822 E0.08225
G1 X120.944 Y44.822 E0.49353
G1 X120.944 Y42.493 E0.08225
G1 X106.973 Y42.493 E0.49353
G1 X106.973 Y40.165 E0.08225
G1 X120.944 Y40.165 E0.49353
G1 X120.944 Y37.836 E0.08225
G1 X106.973 Y37.836 E0.49353
G1 X111.630 Y37.836 E0.16451
G1 X111.630 Y35.508 E0.08225
G1 X116.435 Y35.508 E0.16973
;LAYER_CHANGE
;Z:0.68
;HEIGHT:0.217484
;BEFORE_LAYER_CHANGE
G92 E0
;0.68


G1 Z0.680 F9000.000
;AFTER_LAYER_CHANGE
;0.68
G1 X114.105 Y57.860
;TYPE:Perimeter
;WIDTH:0.45
;HEIGHT:0.24
G1 F900
G1 X114.285 Y57.906 E0.00740
G1 X114.431 Y57.974 E0.00639
G1 X114.566 Y58.068 E0.00655
G1 X114.683 Y58.185 E0.00655
G1 X114.777 Y58.320 E0.00655
G1 X114.847 Y58.469 E0.00655
G1 X114.889 Y58.628 E0.00655
G1 X114.904 Y58.793 E0.00655
G1 X114.889 Y58.957 E0.00655
G1 X114.847 Y59.116 E0.00655
G1 X114.777 Y59.265 E0.00655
G1 X114.683 Y59.400 E0.00655
G1 X114.566 Y59.517 E0.00655
G1 X114.431 Y59.612 E0.00655
G1 X114.282 Y59.681 E0.00655
G1 X114.122 Y59.724 E0.00655
G1 X113.958 Y59.738 E0.00655
G1 X113.794 Y59.724 E0.00655
G1 X113.635 Y59.681 E0.00655
G1 X113.485 Y59.612 E0.00655
G1 X113.350 Y59.517 E0.00655
G1 X113.234 Y59.400 E0.00655
G1 X113.139 Y59.265 E0.00655
G1 X113.070 Y59.116 E0.00655
G1 X113.027 Y58.957 E0.00655
G1 X113.013 Y58.793 E0.00655
G1 X113.027 Y58.628 E0.00655
G1 X113.070 Y58.469 E0.00655
G1 X113.139 Y58.320 E0.00655
G1 X113.234 Y58.185 E0.00655
G1 X113.350 Y58.068 E0.00655
G1 X113.485 Y57.974 E0.00655
G1 X113.635 Y57.904 E0.00655
G1 X113.794 Y57.862 E0.00655
G1 X114.045 Y57.855 E0.00998
G1 X114.080 Y57.458 F9000.000
;TYPE:External perimeter
G1 F900
G1 X114.420 Y57.529 E0.01381
G1 X114.631 Y57.627 E0.00927
G1 X114.823 Y57.762 E0.00933
G1 X114.989 Y57.928 E0.00933
G1 X115.124 Y58.120 E0.00933
G1 X115.223 Y58.332 E0.00933
G1 X115.283 Y58.559 E0.00933
G1 X115.304 Y58.793 E0.00933
G1 X115.283 Y59.026 E0.00933
G1 X115.223 Y59.253 E0.00933
G1 X115.124 Y59.465 E0.00933
G1 X114.989 Y59.658 E0.00933
G1 X114.823 Y59.823 E0.00933
G1 X114.631 Y59.958 E0.00933
G1 X114.418 Y60.057 E0.00933
G1 X114.192 Y60.118 E0.00933
G1 X113.958 Y60.138 E0.00933
G1 X113.725 Y60.118 E0.00933
G1 X113.498 Y60.057 E0.00933
G1 X113.285 Y59.958 E0.00933
G1 X113.093 Y59.823 E0.00933
G1 X112.927 Y59.658 E0.00933
G1 X112.793 Y59.465 E0.00933
G1 X112.694 Y59.253 E0.00933
G1 X112.633 Y59.026 E0.00933
G1 X112.613 Y58.793 E0.00933
G1 X112.633 Y58.559 E0.00933
G1 X112.694 Y58.332 E0.00933
