; generated by PrusaSlicer 2.3.3+win64 on 2021-12-14 at 07:09:49 UTC

; 

; external perimeters extrusion width = 0.45mm
; perimeters extrusion width = 0.45mm
; infill extrusion width = 0.45mm
; solid infill extrusion width = 0.45mm
; top infill extrusion width = 0.40mm
; first layer extrusion width = 0.42mm

M201 X500 Y500 Z100 E5000 ; sets maximum accelerations, mm/sec^2
M203 X500 Y500 Z10 E60 ; sets maximum feedrates, mm/sec
M204 P500 R1000 T500 ; sets acceleration (P, T) and retract acceleration (R), mm/sec^2
M205 X8.00 Y8.00 Z0.40 E5.00 ; sets the jerk limits, mm/sec
M205 S0 T0 ; sets the minimum extruding and travel feed rate, mm/sec
;TYPE:Custom
G90 ; use absolute coordinates
M83 ; extruder relative mode
M140 S60 ; set final bed temp
M104 S150 ; set temporary nozzle temp to prevent oozing during homing
G4 S10 ; allow partial nozzle warmup
G28 ; home all axis
G1 Z50 F240
G1 X2 Y10 F3000
M104 S210 ; set final nozzle temp
M190 S60 ; wait for bed temp to stabilize
M109 S210 ; wait for nozzle temp to stabilize
G1 Z0.28 F240
G92 E0
G1 Y140 E10 F1500 ; prime the nozzle
G1 X2.3 F5000
G92 E0
G1 Y10 E10 F1200 ; prime the nozzle
G92 E0
G21 ; set units to millimeters
G90 ; use absolute coordinates
M83 ; use relative distances for extrusion
; Filament gcode
M106 S255
;LAYER_CHANGE
;Z:0.2
;HEIGHT:0.2
;BEFORE_LAYER_CHANGE
G92 E0
;0.2


G1 Z0.200 F9000.000
;AFTER_LAYER_CHANGE
;0.2
G1 E-5.00000 F3600.000
G1 X95.766 Y35.843 F9000.000
G1 E5.00000 F2400.000
M204 S500
;TYPE:Skirt
;WIDTH:0.42
G1 F1200.000
G1 X96.469 Y34.242 E0.05482
G1 X97.442 Y32.806 E0.05437
G1 X108.371 Y21.801 E0.48630
G1 X109.847 Y20.594 E0.05979
G1 X111.532 Y19.696 E0.05986
G1 X113.359 Y19.143 E0.05986
G1 X115.259 Y18.956 E0.05986
G1 X117.159 Y19.144 E0.05986
G1 X118.982 Y19.696 E0.05971
G1 X120.666 Y20.594 E0.05986
G1 X122.140 Y21.800 E0.05971
G1 X133.070 Y32.805 E0.48634
G1 X134.043 Y34.241 E0.05437
G1 X134.747 Y35.842 E0.05482
G1 X135.070 Y37.052 E0.03927
G1 X135.259 Y38.843 E0.05646
G1 X135.109 Y40.671 E0.05752
G1 X134.593 Y42.506 E0.05976
G1 X133.743 Y44.185 E0.05901
G1 X132.530 Y45.728 E0.06155
G1 X122.139 Y56.123 E0.46083
G1 X121.340 Y56.833 E0.03351
G1 X119.854 Y57.813 E0.05582
G1 X118.236 Y58.496 E0.05507
G1 X117.008 Y58.804 E0.03970
G1 X115.254 Y58.965 E0.05522
G1 X113.504 Y58.804 E0.05507
G1 X112.276 Y58.496 E0.03970
G1 X110.658 Y57.813 E0.05507
G1 X109.172 Y56.833 E0.05582
G1 X108.372 Y56.121 E0.03356
G1 X97.984 Y45.729 E0.46073
G1 X96.770 Y44.186 E0.06155
G1 X95.920 Y42.507 E0.05901
G1 X95.404 Y40.672 E0.05976
G1 X95.253 Y38.839 E0.05767
G1 X95.443 Y37.053 E0.05632
G1 X95.750 Y35.901 E0.03739
G1 X96.113 Y35.998 F9000.000
G1 F1200.000
G1 X96.802 Y34.421 E0.05395
G1 X97.747 Y33.028 E0.05276
G1 X108.637 Y22.068 E0.48445
G1 X110.056 Y20.908 E0.05747
G1 X111.675 Y20.044 E0.05755
G1 X113.432 Y19.513 E0.05755
G1 X115.259 Y19.333 E0.05755
G1 X117.085 Y19.514 E0.05755
G1 X118.838 Y20.044 E0.05740
G1 X120.457 Y20.908 E0.05755
G1 X121.874 Y22.067 E0.05741
G1 X132.765 Y33.027 E0.48447
G1 X133.711 Y34.420 E0.05276
G1 X134.392 Y35.968 E0.05305
G1 X134.699 Y37.119 E0.03735
G1 X134.882 Y38.842 E0.05432
G1 X134.738 Y40.605 E0.05546
G1 X134.244 Y42.364 E0.05730
G1 X133.425 Y43.983 E0.05688
G1 X132.262 Y45.462 E0.05900
G1 X121.872 Y55.856 E0.46077
G1 X121.121 Y56.526 E0.03159
G1 X119.676 Y57.481 E0.05429
G1 X118.114 Y58.139 E0.05315
G1 X116.951 Y58.432 E0.03761
G1 X115.258 Y58.588 E0.05329
G1 X113.566 Y58.432 E0.05329
G1 X112.398 Y58.139 E0.03775
G1 X110.836 Y57.480 E0.05315
G1 X109.392 Y56.526 E0.05429
G1 X108.639 Y55.854 E0.03165
G1 X98.251 Y45.463 E0.46069
G1 X97.088 Y43.984 E0.05897
G1 X96.269 Y42.365 E0.05688
G1 X95.775 Y40.606 E0.05730
G1 X95.630 Y38.843 E0.05546
G1 X95.814 Y37.120 E0.05432
G1 X96.098 Y36.055 E0.03455
G1 E-5.00000 F3600.000
G1 X108.030 Y35.025 F9000.000
G1 E5.00000 F2400.000
;TYPE:Perimeter
G1 F1200.000
G1 X109.316 Y35.025 E0.04032
G1 X109.717 Y34.980 E0.01265
G1 X110.155 Y34.826 E0.01454
G1 X110.547 Y34.580 E0.01454
G1 X110.875 Y34.252 E0.01454
G1 X111.122 Y33.859 E0.01454
G1 X111.275 Y33.421 E0.01454
G1 X111.320 Y33.020 E0.01265
G1 X111.320 Y31.735 E0.04031
G1 X110.897 Y31.023 E0.02597
G1 X110.692 Y30.585 E0.01516
G1 X110.531 Y30.133 E0.01503
G1 X110.407 Y29.611 E0.01684
G1 X110.344 Y29.181 E0.01360
G1 X110.322 Y28.698 E0.01516
G1 X110.347 Y28.216 E0.01516
G1 X110.419 Y27.737 E0.01516
G1 X110.537 Y27.269 E0.01516
G1 X110.701 Y26.814 E0.01516
G1 X110.908 Y26.377 E0.01516
G1 X111.158 Y25.963 E0.01516
G1 X111.446 Y25.575 E0.01516
G1 X111.771 Y25.217 E0.01516
G1 X112.130 Y24.893 E0.01516
G1 X112.519 Y24.605 E0.01516
G1 X112.933 Y24.357 E0.01516
G1 X113.371 Y24.150 E0.01516
G1 X113.826 Y23.988 E0.01516
G1 X114.295 Y23.870 E0.01516
G1 X114.769 Y23.800 E0.01503
G1 X115.306 Y23.778 E0.01684
G1 X115.739 Y23.800 E0.01360
G1 X116.218 Y23.870 E0.01516
G1 X116.687 Y23.988 E0.01516
G1 X117.142 Y24.150 E0.01516
G1 X117.579 Y24.357 E0.01516
G1 X117.994 Y24.605 E0.01516
G1 X118.383 Y24.893 E0.01516
G1 X118.741 Y25.217 E0.01516
G1 X119.066 Y25.575 E0.01516
G1 X119.211 Y25.769 E0.00758
G1 X119.355 Y25.963 E0.00758
G1 X119.604 Y26.377 E0.01516
G1 X119.812 Y26.814 E0.01516
G1 X119.976 Y27.269 E0.01516
G1 X120.094 Y27.737 E0.01516
G1 X120.166 Y28.216 E0.01516
G1 X120.191 Y28.698 E0.01516
G1 X120.168 Y29.181 E0.01516
G1 X120.099 Y29.660 E0.01516
G1 X119.983 Y30.129 E0.01516
G1 X119.821 Y30.585 E0.01516
G1 X119.616 Y31.023 E0.01516
G1 X119.192 Y31.735 E0.02597
G1 X119.192 Y33.020 E0.04031
G1 X119.237 Y33.421 E0.01265
G1 X119.390 Y33.859 E0.01454
G1 X119.637 Y34.252 E0.01454
G1 X119.965 Y34.580 E0.01454
G1 X120.358 Y34.826 E0.01454
G1 X120.795 Y34.980 E0.01454
G1 X121.197 Y35.025 E0.01265
G1 X122.483 Y35.025 E0.04032
G1 X123.190 Y34.603 E0.02582
G1 X123.624 Y34.399 E0.01502
G1 X124.075 Y34.238 E0.01502
G1 X124.539 Y34.122 E0.01502
G1 X125.013 Y34.051 E0.01502
G1 X125.492 Y34.026 E0.01502
G1 X125.970 Y34.048 E0.01502
G1 X126.444 Y34.116 E0.01502
G1 X126.910 Y34.230 E0.01502
G1 X127.362 Y34.388 E0.01502
G1 X127.796 Y34.590 E0.01502
G1 X128.210 Y34.832 E0.01502
G1 X128.597 Y35.114 E0.01502
G1 X128.956 Y35.432 E0.01502
G1 X129.281 Y35.783 E0.01502
G1 X129.572 Y36.164 E0.01502
G1 X129.824 Y36.571 E0.01502
G1 X130.035 Y37.001 E0.01502
G1 X130.204 Y37.449 E0.01502
G1 X130.328 Y37.912 E0.01502
G1 X130.407 Y38.385 E0.01502
G1 X130.440 Y38.863 E0.01502
G1 X130.426 Y39.341 E0.01502
G1 X130.366 Y39.817 E0.01502
G1 X130.260 Y40.284 E0.01502
G1 X130.109 Y40.739 E0.01502
G1 X129.915 Y41.177 E0.01502
G1 X129.682 Y41.590 E0.01490
G1 X129.373 Y42.023 E0.01669
G1 X129.093 Y42.350 E0.01347
G1 X128.750 Y42.679 E0.01490
G1 X128.330 Y43.005 E0.01669
G1 X127.968 Y43.237 E0.01347
G1 X127.542 Y43.456 E0.01502
G1 X127.096 Y43.632 E0.01502
G1 X126.636 Y43.764 E0.01502
G1 X126.165 Y43.851 E0.01502
G1 X125.688 Y43.892 E0.01502
G1 X125.209 Y43.886 E0.01502
G1 X124.732 Y43.834 E0.01502
G1 X124.263 Y43.736 E0.01502
G1 X123.806 Y43.593 E0.01502
G1 X123.365 Y43.406 E0.01502
G1 X122.661 Y43.024 E0.02512
G1 X121.197 Y43.024 E0.04592
G1 X120.795 Y43.069 E0.01265
G1 X120.358 Y43.222 E0.01454
G1 X119.965 Y43.469 E0.01454
G1 X119.637 Y43.797 E0.01454
G1 X119.390 Y44.190 E0.01454
G1 X119.237 Y44.627 E0.01454
G1 X119.192 Y45.028 E0.01265
G1 X119.192 Y46.187 E0.03631
G1 X119.616 Y46.898 E0.02597
G1 X119.821 Y47.336 E0.01516
G1 X119.981 Y47.788 E0.01503
G1 X120.106 Y48.310 E0.01684
G1 X120.168 Y48.740 E0.01360
G1 X120.191 Y49.223 E0.01516
G1 X120.166 Y49.705 E0.01516
G1 X120.094 Y50.184 E0.01516
G1 X119.976 Y50.652 E0.01516
G1 X119.812 Y51.107 E0.01516
G1 X119.606 Y51.540 E0.01503
G1 X119.325 Y51.998 E0.01684
G1 X119.066 Y52.346 E0.01360
G1 X118.741 Y52.704 E0.01516
G1 X118.383 Y53.028 E0.01516
G1 X117.994 Y53.316 E0.01516
G1 X117.579 Y53.564 E0.01516
G1 X117.142 Y53.771 E0.01516
G1 X116.687 Y53.933 E0.01516
G1 X116.218 Y54.051 E0.01516
G1 X115.739 Y54.121 E0.01516
G1 X115.256 Y54.145 E0.01516
G1 X114.773 Y54.121 E0.01516
G1 X114.295 Y54.051 E0.01516
G1 X113.826 Y53.933 E0.01516
G1 X113.375 Y53.772 E0.01503
G1 X112.891 Y53.539 E0.01684
G1 X112.519 Y53.316 E0.01360
G1 X112.130 Y53.028 E0.01516
G1 X111.771 Y52.704 E0.01516
G1 X111.446 Y52.346 E0.01516
G1 X111.158 Y51.958 E0.01516
G1 X110.908 Y51.544 E0.01516
G1 X110.701 Y51.107 E0.01516
G1 X110.537 Y50.652 E0.01516
G1 X110.419 Y50.184 E0.01516
G1 X110.347 Y49.705 E0.01516
G1 X110.322 Y49.223 E0.01516
G1 X110.344 Y48.740 E0.01516
G1 X110.414 Y48.261 E0.01516
G1 X110.530 Y47.792 E0.01516
G1 X110.692 Y47.336 E0.01516
G1 X110.897 Y46.898 E0.01516
G1 X111.320 Y46.187 E0.02597
G1 X111.320 Y45.028 E0.03631
G1 X111.275 Y44.627 E0.01265
G1 X111.122 Y44.190 E0.01454
G1 X110.875 Y43.797 E0.01454
G1 X110.547 Y43.469 E0.01454
G1 X110.155 Y43.222 E0.01454
G1 X109.717 Y43.069 E0.01454
G1 X109.316 Y43.024 E0.01265
G1 X107.852 Y43.024 E0.04592
G1 X107.148 Y43.406 E0.02512
G1 X106.706 Y43.593 E0.01502
G1 X106.253 Y43.735 E0.01490
G1 X105.731 Y43.839 E0.01669
G1 X105.304 Y43.886 E0.01347
G1 X104.825 Y43.892 E0.01502
G1 X104.348 Y43.851 E0.01502
G1 X103.877 Y43.764 E0.01502
G1 X103.416 Y43.632 E0.01502
G1 X102.971 Y43.456 E0.01502
G1 X102.544 Y43.237 E0.01502
G1 X102.141 Y42.978 E0.01502
G1 X101.765 Y42.682 E0.01502
G1 X101.420 Y42.350 E0.01502
G1 X101.108 Y41.986 E0.01502
G1 X100.833 Y41.594 E0.01502
G1 X100.597 Y41.177 E0.01502
G1 X100.403 Y40.739 E0.01502
G1 X100.254 Y40.288 E0.01490
G1 X100.140 Y39.768 E0.01669
G1 X100.086 Y39.341 E0.01347
G1 X100.073 Y38.867 E0.01490
G1 X100.114 Y38.336 E0.01669
G1 X100.184 Y37.912 E0.01347
G1 X100.308 Y37.453 E0.01490
G1 X100.499 Y36.957 E0.01669
G1 X100.689 Y36.571 E0.01347
G1 X100.941 Y36.164 E0.01502
G1 X101.231 Y35.783 E0.01502
G1 X101.557 Y35.432 E0.01502
G1 X101.916 Y35.114 E0.01502
G1 X102.303 Y34.832 E0.01502
G1 X102.716 Y34.590 E0.01502
G1 X103.151 Y34.388 E0.01502
G1 X103.603 Y34.230 E0.01502
G1 X104.068 Y34.116 E0.01502
G1 X104.542 Y34.048 E0.01502
G1 X105.021 Y34.026 E0.01502
G1 X105.499 Y34.051 E0.01502
G1 X105.973 Y34.122 E0.01502
G1 X106.438 Y34.238 E0.01502
G1 X106.889 Y34.399 E0.01502
G1 X107.322 Y34.603 E0.01502
G1 X107.979 Y34.994 E0.02394
G1 X108.134 Y34.648 F9000.000
G1 F1200.000
G1 X109.295 Y34.648 E0.03640
G1 X109.633 Y34.610 E0.01066
G1 X109.990 Y34.484 E0.01188
G1 X110.311 Y34.283 E0.01188
G1 X110.579 Y34.015 E0.01188
G1 X110.780 Y33.694 E0.01188
G1 X110.905 Y33.337 E0.01188
G1 X110.943 Y32.999 E0.01066
G1 X110.943 Y31.838 E0.03640
G1 X110.563 Y31.200 E0.02330
G1 X110.342 Y30.728 E0.01632
G1 X110.169 Y30.240 E0.01624
G1 X110.036 Y29.682 E0.01800
G1 X109.968 Y29.217 E0.01471
G1 X109.944 Y28.698 E0.01632
G1 X109.971 Y28.178 E0.01632
G1 X110.049 Y27.663 E0.01632
G1 X110.176 Y27.158 E0.01632
G1 X110.352 Y26.669 E0.01632
G1 X110.576 Y26.199 E0.01632
G1 X110.844 Y25.753 E0.01632
G1 X111.155 Y25.335 E0.01632
G1 X111.505 Y24.950 E0.01632
G1 X111.891 Y24.601 E0.01632
G1 X112.309 Y24.291 E0.01632
G1 X112.756 Y24.024 E0.01632
G1 X113.226 Y23.802 E0.01632
G1 X113.717 Y23.626 E0.01632
G1 X114.222 Y23.500 E0.01632
G1 X114.734 Y23.424 E0.01624
G1 X115.308 Y23.401 E0.01800
G1 X115.776 Y23.424 E0.01471
G1 X116.291 Y23.500 E0.01632
G1 X116.796 Y23.626 E0.01632
G1 X117.286 Y23.802 E0.01632
G1 X117.757 Y24.024 E0.01632
G1 X118.203 Y24.291 E0.01632
G1 X118.622 Y24.601 E0.01632
G1 X119.008 Y24.950 E0.01632
G1 X119.358 Y25.335 E0.01632
G1 X119.669 Y25.753 E0.01632
G1 X119.937 Y26.199 E0.01632
G1 X120.160 Y26.669 E0.01632
G1 X120.337 Y27.158 E0.01632
G1 X120.464 Y27.663 E0.01632
G1 X120.542 Y28.178 E0.01632
G1 X120.568 Y28.698 E0.01632
G1 X120.544 Y29.217 E0.01632
G1 X120.469 Y29.733 E0.01632
G1 X120.344 Y30.238 E0.01632
G1 X120.170 Y30.728 E0.01632
G1 X119.949 Y31.200 E0.01632
G1 X119.569 Y31.838 E0.02330
G1 X119.569 Y32.999 E0.03640
G1 X119.607 Y33.337 E0.01066
G1 X119.732 Y33.694 E0.01188
G1 X119.934 Y34.015 E0.01188
G1 X120.202 Y34.283 E0.01188
G1 X120.522 Y34.484 E0.01188
G1 X120.880 Y34.610 E0.01188
G1 X121.218 Y34.648 E0.01066
G1 X122.379 Y34.648 E0.03640
G1 X123.013 Y34.270 E0.02315
G1 X123.480 Y34.050 E0.01617
G1 X123.965 Y33.877 E0.01617
G1 X124.465 Y33.751 E0.01617
G1 X124.976 Y33.675 E0.01617
G1 X125.491 Y33.648 E0.01617
G1 X126.006 Y33.672 E0.01617
G1 X126.516 Y33.745 E0.01617
G1 X127.017 Y33.868 E0.01617
G1 X127.504 Y34.038 E0.01617
G1 X127.972 Y34.255 E0.01617
G1 X128.416 Y34.516 E0.01617
G1 X128.834 Y34.820 E0.01617
G1 X129.219 Y35.162 E0.01617
G1 X129.570 Y35.540 E0.01617
G1 X129.883 Y35.950 E0.01617
G1 X130.154 Y36.388 E0.01617
G1 X130.382 Y36.851 E0.01617
G1 X130.563 Y37.334 E0.01617
G1 X130.697 Y37.832 E0.01617
G1 X130.782 Y38.341 E0.01617
G1 X130.817 Y38.855 E0.01617
G1 X130.803 Y39.371 E0.01617
G1 X130.770 Y39.626 E0.00808
G1 X130.738 Y39.882 E0.00808
G1 X130.624 Y40.385 E0.01617
G1 X130.462 Y40.875 E0.01617
G1 X130.253 Y41.346 E0.01617
G1 X130.000 Y41.793 E0.01609
G1 X129.670 Y42.256 E0.01784
G1 X129.367 Y42.609 E0.01457
G1 X128.997 Y42.964 E0.01609
G1 X128.548 Y43.313 E0.01784
G1 X128.157 Y43.564 E0.01457
G1 X127.698 Y43.800 E0.01617
G1 X127.218 Y43.989 E0.01617
G1 X126.722 Y44.132 E0.01617
G1 X126.215 Y44.225 E0.01617
G1 X125.701 Y44.269 E0.01617
G1 X125.186 Y44.263 E0.01617
G1 X124.673 Y44.207 E0.01617
G1 X124.168 Y44.101 E0.01617
G1 X123.676 Y43.947 E0.01617
G1 X123.201 Y43.746 E0.01617
G1 X122.565 Y43.401 E0.02269
G1 X121.218 Y43.401 E0.04225
G1 X120.880 Y43.439 E0.01066
G1 X120.522 Y43.564 E0.01188
G1 X120.202 Y43.766 E0.01188
G1 X119.934 Y44.034 E0.01188
G1 X119.732 Y44.354 E0.01188
G1 X119.607 Y44.712 E0.01188
G1 X119.569 Y45.050 E0.01066
G1 X119.569 Y46.083 E0.03239
G1 X119.949 Y46.721 E0.02330
G1 X120.170 Y47.193 E0.01632
G1 X120.343 Y47.681 E0.01624
G1 X120.477 Y48.239 E0.01800
G1 X120.544 Y48.704 E0.01471
G1 X120.568 Y49.224 E0.01632
G1 X120.542 Y49.743 E0.01632
G1 X120.464 Y50.258 E0.01632
G1 X120.337 Y50.763 E0.01632
G1 X120.160 Y51.252 E0.01632
G1 X119.938 Y51.720 E0.01624
G1 X119.638 Y52.210 E0.01800
G1 X119.358 Y52.586 E0.01471
G1 X119.008 Y52.971 E0.01632
G1 X118.622 Y53.320 E0.01632
G1 X118.203 Y53.630 E0.01632
G1 X117.757 Y53.897 E0.01632
G1 X117.286 Y54.120 E0.01632
G1 X116.796 Y54.295 E0.01632
G1 X116.291 Y54.421 E0.01632
G1 X115.776 Y54.497 E0.01632
G1 X115.256 Y54.523 E0.01632
G1 X114.736 Y54.497 E0.01632
G1 X114.222 Y54.421 E0.01632
G1 X113.717 Y54.295 E0.01632
G1 X113.229 Y54.120 E0.01624
G1 X112.712 Y53.871 E0.01800
G1 X112.309 Y53.630 E0.01471
G1 X111.891 Y53.320 E0.01632
G1 X111.505 Y52.971 E0.01632
G1 X111.155 Y52.586 E0.01632
G1 X110.844 Y52.169 E0.01632
G1 X110.576 Y51.723 E0.01632
G1 X110.352 Y51.252 E0.01632
G1 X110.176 Y50.763 E0.01632
G1 X110.049 Y50.258 E0.01632
G1 X109.971 Y49.743 E0.01632
G1 X109.944 Y49.224 E0.01632
G1 X109.968 Y48.704 E0.01632
G1 X110.043 Y48.189 E0.01632
G1 X110.168 Y47.683 E0.01632
G1 X110.342 Y47.193 E0.01632
G1 X110.563 Y46.721 E0.01632
G1 X110.943 Y46.083 E0.02330
G1 X110.943 Y45.050 E0.03239
G1 X110.905 Y44.712 E0.01066
G1 X110.780 Y44.354 E0.01188
G1 X110.579 Y44.034 E0.01188
G1 X110.311 Y43.766 E0.01188
G1 X109.990 Y43.564 E0.01188
G1 X109.633 Y43.439 E0.01188
G1 X109.295 Y43.401 E0.01066
G1 X107.947 Y43.401 E0.04225
G1 X107.311 Y43.746 E0.02269
G1 X106.836 Y43.947 E0.01617
G1 X106.347 Y44.101 E0.01609
G1 X105.789 Y44.212 E0.01784
G1 X105.327 Y44.263 E0.01457
G1 X104.811 Y44.269 E0.01617
G1 X104.297 Y44.225 E0.01617
G1 X103.790 Y44.132 E0.01617
G1 X103.295 Y43.989 E0.01617
G1 X102.815 Y43.800 E0.01617
G1 X102.356 Y43.564 E0.01617
G1 X101.922 Y43.286 E0.01617
G1 X101.517 Y42.966 E0.01617
G1 X101.145 Y42.609 E0.01617
G1 X100.810 Y42.217 E0.01617
G1 X100.514 Y41.795 E0.01617
G1 X100.260 Y41.346 E0.01617
G1 X100.051 Y40.875 E0.01617
G1 X99.890 Y40.387 E0.01609
G1 X99.768 Y39.832 E0.01784
G1 X99.710 Y39.371 E0.01457
G1 X99.695 Y38.858 E0.01609
G1 X99.739 Y38.290 E0.01784
G1 X99.815 Y37.832 E0.01457
G1 X99.949 Y37.336 E0.01609
G1 X100.153 Y36.805 E0.01784
G1 X100.358 Y36.388 E0.01457
G1 X100.630 Y35.950 E0.01617
G1 X100.942 Y35.540 E0.01617
G1 X101.293 Y35.162 E0.01617
G1 X101.679 Y34.820 E0.01617
G1 X102.096 Y34.516 E0.01617
G1 X102.541 Y34.255 E0.01617
G1 X103.009 Y34.038 E0.01617
G1 X103.495 Y33.868 E0.01617
