; generated by PrusaSlicer 2.3.3+win64 on 2021-12-14 at 07:17:28 UTC

; 

; external perimeters extrusion width = 0.45mm
; perimeters extrusion width = 0.45mm
; infill extrusion width = 0.45mm
; solid infill extrusion width = 0.45mm
; top infill extrusion width = 0.40mm
; first layer extrusion width = 0.42mm

M201 X500 Y500 Z100 E5000 ; sets maximum accelerations, mm/sec^2
M203 X500 Y500 Z10 E60 ; sets maximum feedrates, mm/sec
M204 P500 R1000 T500 ; sets acceleration (P, T) and retract acceleration (R), mm/sec^2
M205 X8.00 Y8.00 Z0.40 E5.00 ; sets the jerk limits, mm/sec
M205 S0 T0 ; sets the minimum extruding and travel feed rate, mm/sec
;TYPE:Custom
G90 ; use absolute coordinates
M83 ; extruder relative mode
M140 S60 ; set final bed temp
M104 S150 ; set temporary nozzle temp to prevent oozing during homing
G4 S10 ; allow partial nozzle warmup
G28 ; home all axis
G1 Z50 F240
G1 X2 Y10 F3000
M104 S210 ; set final nozzle temp
M190 S60 ; wait for bed temp to stabilize
M109 S210 ; wait for nozzle temp to stabilize
G1 Z0.28 F240
G92 E0
G1 Y140 E10 F1500 ; prime the nozzle
G1 X2.3 F5000
G92 E0
G1 Y10 E10 F1200 ; prime the nozzle
G92 E0
G21 ; set units to millimeters
G90 ; use absolute coordinates
M83 ; use relative distances for extrusion
; Filament gcode
M106 S255
;LAYER_CHANGE
;Z:0.2
;HEIGHT:0.2
;BEFORE_LAYER_CHANGE
G92 E0
;0.2


G1 Z0.200 F9000.000
;AFTER_LAYER_CHANGE
;0.2
G1 E-5.00000 F3600.000
G1 X57.322 Y34.157 F9000.000
G1 E5.00000 F2400.000
M204 S500
;TYPE:Skirt
;WIDTH:0.42
G1 F1200.000
G1 X59.020 Y32.046 E0.08492
G1 X60.948 Y30.121 E0.08545
G1 X63.207 Y28.327 E0.09043
G1 X65.091 Y27.117 E0.07022
G1 X66.967 Y26.142 E0.06628
G1 X69.862 Y24.985 E0.09776
G1 X72.907 Y24.205 E0.09855
G1 X75.006 Y23.888 E0.06654
G1 X77.124 Y23.762 E0.06654
G1 X169.527 Y23.751 E2.89721
G1 X172.115 Y23.887 E0.08128
G1 X174.618 Y24.277 E0.07941
G1 X177.132 Y24.939 E0.08151
G1 X179.254 Y25.731 E0.07101
G1 X181.813 Y26.986 E0.08937
G1 X183.736 Y28.198 E0.07127
G1 X184.684 Y28.888 E0.03677
G1 X186.647 Y30.552 E0.08070
G1 X188.190 Y32.129 E0.06917
G1 X189.820 Y34.165 E0.08177
G1 X191.192 Y36.294 E0.07941
G1 X192.385 Y38.651 E0.08282
G1 X193.294 Y41.033 E0.07994
G1 X193.962 Y43.519 E0.08072
G1 X194.372 Y46.078 E0.08125
G1 X194.513 Y48.523 E0.07679
G1 X194.515 Y68.207 E0.61718
G1 X194.392 Y71.724 E0.11035
G1 X194.064 Y75.018 E0.10377
G1 X193.496 Y78.440 E0.10876
G1 X192.715 Y81.776 E0.10745
G1 X191.634 Y85.292 E0.11532
G1 X190.372 Y88.577 E0.11033
G1 X189.101 Y91.367 E0.09615
G1 X187.649 Y94.097 E0.09694
G1 X185.691 Y97.279 E0.11716
G1 X183.656 Y100.120 E0.10955
G1 X181.454 Y102.800 E0.10876
G1 X178.874 Y105.526 E0.11768
G1 X176.631 Y107.618 E0.09615
G1 X174.252 Y109.578 E0.09668
G1 X171.274 Y111.737 E0.11532
G1 X168.273 Y113.608 E0.11086
G1 X165.229 Y115.235 E0.10824
G1 X162.084 Y116.659 E0.10824
G1 X158.693 Y117.925 E0.11349
G1 X155.581 Y118.863 E0.10193
G1 X152.202 Y119.648 E0.10876
G1 X149.069 Y120.168 E0.09957
G1 X141.530 Y121.243 E0.23878
G1 X139.649 Y121.352 E0.05908
G1 X102.925 Y121.353 E1.15146
G1 X101.314 Y121.243 E0.05061
G1 X99.654 Y120.933 E0.05296
G1 X91.625 Y118.881 E0.25982
G1 X88.219 Y117.851 E0.11159
G1 X85.051 Y116.658 E0.10614
G1 X82.217 Y115.382 E0.09746
G1 X78.710 Y113.518 E0.12451
G1 X75.938 Y111.788 E0.10246
G1 X73.173 Y109.807 E0.10666
G1 X70.529 Y107.639 E0.10719
G1 X68.261 Y105.525 E0.09720
G1 X65.442 Y102.519 E0.12923
G1 X63.459 Y100.092 E0.09825
G1 X61.529 Y97.404 E0.10377
G1 X59.475 Y94.074 E0.12268
G1 X58.020 Y91.336 E0.09720
G1 X56.614 Y88.230 E0.10692
G1 X55.418 Y85.054 E0.10640
G1 X54.506 Y82.073 E0.09773
G1 X53.595 Y78.208 E0.12451
G1 X53.029 Y74.642 E0.11322
G1 X52.733 Y71.581 E0.09641
G1 X52.627 Y68.525 E0.09589
G1 X52.624 Y48.472 E0.62875
G1 X52.781 Y45.935 E0.07970
G1 X53.297 Y43.004 E0.09330
G1 X53.842 Y41.031 E0.06418
G1 X54.557 Y39.122 E0.06391
G1 X55.748 Y36.653 E0.08595
G1 X57.290 Y34.208 E0.09064
G1 X57.609 Y34.409 F9000.000
G1 F1200.000
G1 X59.307 Y32.291 E0.08511
G1 X61.207 Y30.396 E0.08415
G1 X63.445 Y28.621 E0.08957
G1 X65.288 Y27.438 E0.06866
G1 X67.144 Y26.474 E0.06556
G1 X69.989 Y25.340 E0.09601
G1 X72.971 Y24.577 E0.09653
G1 X75.047 Y24.263 E0.06582
G1 X77.150 Y24.138 E0.06608
G1 X169.526 Y24.129 E2.89639
G1 X172.069 Y24.261 E0.07984
G1 X174.542 Y24.647 E0.07848
G1 X177.018 Y25.299 E0.08028
G1 X179.109 Y26.079 E0.06995
G1 X181.629 Y27.315 E0.08801
G1 X183.523 Y28.509 E0.07021
G1 X184.443 Y29.178 E0.03565
G1 X186.383 Y30.822 E0.07974
G1 X187.903 Y32.375 E0.06814
G1 X189.514 Y34.386 E0.08080
G1 X190.861 Y36.476 E0.07796
G1 X192.040 Y38.805 E0.08183
G1 X192.936 Y41.150 E0.07874
G1 X193.595 Y43.608 E0.07977
G1 X193.998 Y46.128 E0.08003
G1 X194.136 Y48.553 E0.07615
G1 X194.138 Y68.206 E0.61621
G1 X194.016 Y71.695 E0.10947
G1 X193.690 Y74.966 E0.10306
G1 X193.127 Y78.363 E0.10797
G1 X192.352 Y81.676 E0.10668
G1 X191.279 Y85.164 E0.11442
G1 X190.026 Y88.428 E0.10961
G1 X188.760 Y91.206 E0.09573
G1 X187.317 Y93.919 E0.09634
G1 X185.373 Y97.076 E0.11623
G1 X183.353 Y99.895 E0.10875
G1 X181.172 Y102.549 E0.10771
G1 X178.611 Y105.256 E0.11685
G1 X176.384 Y107.333 E0.09547
G1 X174.013 Y109.287 E0.09634
G1 X171.037 Y111.442 E0.11520
G1 X168.087 Y113.280 E0.10900
G1 X165.057 Y114.899 E0.10771
G1 X161.942 Y116.309 E0.10720
G1 X158.577 Y117.566 E0.11262
G1 X155.485 Y118.498 E0.10125
G1 X152.123 Y119.279 E0.10823
G1 X149.010 Y119.795 E0.09893
G1 X141.470 Y120.870 E0.23883
G1 X139.646 Y120.975 E0.05727
G1 X102.925 Y120.976 E1.15137
G1 X101.369 Y120.869 E0.04890
G1 X99.741 Y120.567 E0.05192
G1 X91.719 Y118.516 E0.25959
G1 X88.342 Y117.494 E0.11062
G1 X85.197 Y116.311 E0.10539
G1 X82.373 Y115.038 E0.09712
G1 X78.903 Y113.194 E0.12320
G1 X76.149 Y111.476 E0.10177
G1 X73.404 Y109.508 E0.10590
G1 X70.779 Y107.357 E0.10642
G1 X68.519 Y105.250 E0.09686
G1 X65.730 Y102.276 E0.12785
G1 X63.754 Y99.858 E0.09789
G1 X61.824 Y97.167 E0.10384
G1 X59.809 Y93.900 E0.12036
G1 X58.359 Y91.172 E0.09686
G1 X56.960 Y88.080 E0.10642
G1 X55.772 Y84.926 E0.10565
G1 X54.867 Y81.964 E0.09712
G1 X53.964 Y78.132 E0.12346
G1 X53.403 Y74.601 E0.11210
G1 X53.110 Y71.559 E0.09583
G1 X53.004 Y68.512 E0.09557
G1 X53.001 Y48.484 E0.62796
G1 X53.155 Y45.984 E0.07855
G1 X53.663 Y43.098 E0.09188
G1 X54.201 Y41.146 E0.06350
G1 X54.909 Y39.258 E0.06323
G1 X56.083 Y36.826 E0.08465
G1 X57.577 Y34.460 E0.08775
G1 X57.895 Y34.661 F9000.000
G1 F1200.000
G1 X59.594 Y32.536 E0.08530
G1 X61.460 Y30.676 E0.08261
G1 X63.677 Y28.920 E0.08869
G1 X65.479 Y27.764 E0.06712
G1 X67.314 Y26.811 E0.06484
G1 X70.115 Y25.696 E0.09451
G1 X73.035 Y24.948 E0.09451
G1 X75.088 Y24.638 E0.06509
G1 X77.168 Y24.515 E0.06535
G1 X169.526 Y24.506 E2.89583
G1 X172.032 Y24.636 E0.07867
G1 X174.467 Y25.016 E0.07728
G1 X176.905 Y25.659 E0.07905
G1 X178.972 Y26.430 E0.06915
G1 X181.452 Y27.648 E0.08665
G1 X183.324 Y28.830 E0.06940
G1 X184.214 Y29.478 E0.03453
G1 X186.125 Y31.097 E0.07852
G1 X187.617 Y32.621 E0.06687
G1 X189.204 Y34.601 E0.07956
G1 X190.535 Y36.666 E0.07702
G1 X191.696 Y38.958 E0.08058
G1 X192.578 Y41.268 E0.07753
G1 X193.227 Y43.688 E0.07855
G1 X193.624 Y46.178 E0.07905
G1 X193.760 Y48.590 E0.07576
G1 X193.761 Y68.205 E0.61501
G1 X193.640 Y71.666 E0.10859
G1 X193.315 Y74.923 E0.10261
G1 X192.758 Y78.287 E0.10693
G1 X191.988 Y81.576 E0.10591
G1 X190.927 Y85.029 E0.11327
G1 X189.685 Y88.266 E0.10869
G1 X188.423 Y91.037 E0.09550
G1 X186.988 Y93.733 E0.09575
G1 X185.061 Y96.865 E0.11530
G1 X183.056 Y99.664 E0.10794
G1 X180.891 Y102.298 E0.10693
G1 X178.353 Y104.980 E0.11577
G1 X176.137 Y107.048 E0.09502
G1 X173.774 Y108.995 E0.09600
G1 X170.801 Y111.146 E0.11504
G1 X167.893 Y112.957 E0.10743
G1 X164.885 Y114.564 E0.10693
G1 X161.793 Y115.963 E0.10642
G1 X158.454 Y117.209 E0.11175
G1 X155.382 Y118.135 E0.10058
G1 X152.053 Y118.908 E0.10718
G1 X148.960 Y119.422 E0.09829
G1 X141.418 Y120.497 E0.23887
G1 X139.643 Y120.597 E0.05573
G1 X102.925 Y120.599 E1.15129
G1 X101.415 Y120.495 E0.04745
G1 X99.828 Y120.200 E0.05062
G1 X91.805 Y118.149 E0.25962
G1 X88.466 Y117.138 E0.10940
G1 X85.342 Y115.963 E0.10464
G1 X82.529 Y114.695 E0.09677
G1 X79.096 Y112.870 E0.12190
G1 X76.361 Y111.164 E0.10109
G1 X73.628 Y109.205 E0.10540
G1 X71.022 Y107.069 E0.10566
G1 X68.771 Y104.969 E0.09651
G1 X66.018 Y102.033 E0.12621
G1 X64.055 Y99.631 E0.09727
G1 X62.120 Y96.931 E0.10413
G1 X60.140 Y93.718 E0.11835
G1 X58.698 Y91.007 E0.09626
G1 X57.309 Y87.938 E0.10565
G1 X56.130 Y84.807 E0.10490
G1 X55.228 Y81.855 E0.09677
G1 X54.334 Y78.055 E0.12240
G1 X53.779 Y74.567 E0.11073
G1 X53.486 Y71.536 E0.09550
G1 X53.381 Y68.492 E0.09550
G1 X53.378 Y48.505 E0.62667
G1 X53.528 Y46.033 E0.07766
G1 X54.026 Y43.200 E0.09020
G1 X54.560 Y41.261 E0.06306
G1 X55.261 Y39.393 E0.06255
G1 X56.418 Y36.999 E0.08335
G1 X57.863 Y34.711 E0.08485
G1 X58.182 Y34.913 F9000.000
G1 F1200.000
G1 X58.253 Y34.800 E0.00420
G1 X59.881 Y32.781 E0.08131
G1 X61.718 Y30.951 E0.08131
G1 X63.908 Y29.219 E0.08753
G1 X65.676 Y28.085 E0.06586
G1 X67.491 Y27.144 E0.06411
G1 X70.233 Y26.054 E0.09251
G1 X73.099 Y25.320 E0.09276
G1 X75.129 Y25.013 E0.06436
G1 X77.194 Y24.891 E0.06486
G1 X169.526 Y24.883 E2.89502
G1 X171.995 Y25.012 E0.07751
G1 X174.400 Y25.388 E0.07633
G1 X176.800 Y26.021 E0.07782
G1 X178.834 Y26.782 E0.06810
G1 X181.276 Y27.981 E0.08529
G1 X183.118 Y29.146 E0.06835
G1 X183.977 Y29.771 E0.03331
G1 X185.861 Y31.367 E0.07742
G1 X187.337 Y32.873 E0.06610
G1 X188.894 Y34.816 E0.07807
G1 X190.209 Y36.855 E0.07608
G1 X191.352 Y39.112 E0.07932
G1 X192.220 Y41.386 E0.07633
G1 X192.860 Y43.776 E0.07758
G1 X193.250 Y46.228 E0.07783
G1 X193.383 Y48.619 E0.07508
G1 X193.384 Y68.204 E0.61408
G1 X193.265 Y71.629 E0.10747
G1 X192.942 Y74.871 E0.10215
G1 X192.390 Y78.203 E0.10589
G1 X191.625 Y81.476 E0.10539
G1 X190.575 Y84.894 E0.11212
G1 X189.339 Y88.116 E0.10821
G1 X188.085 Y90.869 E0.09483
G1 X186.656 Y93.555 E0.09541
G1 X184.748 Y96.654 E0.11411
G1 X182.753 Y99.439 E0.10738
G1 X180.427 Y102.248 E0.11436
G1 X178.343 Y104.465 E0.09541
G1 X176.137 Y106.539 E0.09491
G1 X173.323 Y108.872 E0.11461
G1 X170.566 Y110.850 E0.10639
G1 X167.699 Y112.633 E0.10589
G1 X164.720 Y114.225 E0.10589
G1 X161.650 Y115.614 E0.10564
G1 X158.338 Y116.851 E0.11087
G1 X155.287 Y117.770 E0.09990
G1 X151.982 Y118.538 E0.10639
G1 X148.901 Y119.049 E0.09791
G1 X141.358 Y120.124 E0.23891
G1 X139.640 Y120.220 E0.05394
G1 X102.925 Y120.222 E1.15120
G1 X101.461 Y120.121 E0.04600
G1 X99.914 Y119.833 E0.04933
G1 X91.900 Y117.784 E0.25939
G1 X88.589 Y116.782 E0.10844
G1 X85.481 Y115.612 E0.10414
G1 X82.685 Y114.352 E0.09616
G1 X79.282 Y112.542 E0.12084
G1 X76.572 Y110.851 E0.10015
G1 X73.859 Y108.907 E0.10464
G1 X71.272 Y106.786 E0.10489
G1 X69.029 Y104.694 E0.09616
G1 X66.301 Y101.784 E0.12508
G1 X64.351 Y99.396 E0.09666
G1 X62.416 Y96.696 E0.10414
G1 X60.648 Y93.856 E0.10489
G1 X59.204 Y91.169 E0.09566
G1 X57.655 Y87.788 E0.11661
G1 X56.485 Y84.679 E0.10414
G1 X55.589 Y81.746 E0.09616
G1 X54.703 Y77.979 E0.12134
G1 X54.154 Y74.526 E0.10962
G1 X53.862 Y71.505 E0.09516
G1 X53.757 Y68.480 E0.09491
G1 X53.755 Y48.517 E0.62591
G1 X53.902 Y46.082 E0.07651
G1 X54.391 Y43.293 E0.08877
G1 X54.920 Y41.375 E0.06237
G1 X55.613 Y39.528 E0.06186
G1 X56.753 Y37.173 E0.08204
G1 X58.149 Y34.964 E0.08195
G1 E-5.00000 F3600.000
G1 X99.804 Y49.484 F9000.000
G1 E5.00000 F2400.000
;TYPE:Perimeter
G1 F1200.000
G1 X142.732 Y49.484 E1.34599
G1 X142.732 Y105.112 E1.74419
G1 X99.804 Y105.112 E1.34599
G1 X99.804 Y49.544 E1.74231
G1 X100.181 Y49.861 F9000.000
G1 F1200.000
G1 X142.355 Y49.861 E1.32234
G1 X142.355 Y104.735 E1.72054
G1 X100.181 Y104.735 E1.32234
G1 X100.181 Y49.921 E1.71866
G1 X100.558 Y50.238 F9000.000
;TYPE:External perimeter
G1 F1200.000
G1 X141.978 Y50.238 E1.29869
G1 X141.978 Y104.358 E1.69689
G1 X100.558 Y104.358 E1.29869
G1 X100.558 Y50.298 E1.69501
G1 X100.472 Y49.848 F9000.000
G1 E-5.00000 F3600.000
G1 X94.727 Y58.812 F9000.000
G1 E5.00000 F2400.000
;TYPE:Perimeter
G1 F1200.000
G1 X95.623 Y59.629 E0.03801
G1 X96.353 Y60.596 E0.03801
G1 X96.893 Y61.681 E0.03801
G1 X97.225 Y62.847 E0.03801
G1 X97.331 Y63.989 E0.03597
G1 X97.226 Y65.256 E0.03986
G1 X96.893 Y66.427 E0.03816
G1 X96.353 Y67.512 E0.03801
G1 X95.623 Y68.479 E0.03801
G1 X94.727 Y69.296 E0.03801
G1 X93.696 Y69.934 E0.03801
G1 X92.566 Y70.372 E0.03801
G1 X91.374 Y70.595 E0.03801
G1 X90.162 Y70.595 E0.03801
G1 X88.971 Y70.372 E0.03801
G1 X87.840 Y69.934 E0.03801
G1 X86.810 Y69.296 E0.03801
G1 X85.914 Y68.479 E0.03801
G1 X85.183 Y67.512 E0.03801
G1 X84.643 Y66.427 E0.03801
G1 X84.311 Y65.261 E0.03801
G1 X84.206 Y64.119 E0.03597
G1 X84.310 Y62.852 E0.03986
G1 X84.643 Y61.681 E0.03816
G1 X85.183 Y60.596 E0.03801
G1 X85.914 Y59.629 E0.03801
G1 X86.810 Y58.812 E0.03801
G1 X87.840 Y58.174 E0.03801
G1 X88.971 Y57.736 E0.03801
G1 X90.162 Y57.513 E0.03801
G1 X91.374 Y57.513 E0.03801
G1 X92.566 Y57.736 E0.03801
G1 X93.696 Y58.174 E0.03801
G1 X94.676 Y58.780 E0.03613
G1 X94.477 Y59.101 F9000.000
G1 F1200.000
G1 X95.343 Y59.884 E0.03659
G1 X96.031 Y60.795 E0.03582
G1 X96.540 Y61.818 E0.03582
G1 X96.853 Y62.917 E0.03582
G1 X96.952 Y63.991 E0.03384
G1 X96.854 Y65.189 E0.03767
G1 X96.540 Y66.290 E0.03591
G1 X96.031 Y67.313 E0.03582
G1 X95.343 Y68.224 E0.03582
G1 X94.499 Y68.994 E0.03582
G1 X93.527 Y69.595 E0.03582
G1 X92.462 Y70.008 E0.03582
G1 X91.339 Y70.218 E0.03582
G1 X90.197 Y70.218 E0.03582
G1 X89.074 Y70.008 E0.03582
G1 X88.009 Y69.595 E0.03582
G1 X87.038 Y68.994 E0.03582
G1 X86.194 Y68.224 E0.03582
G1 X85.505 Y67.313 E0.03582
G1 X84.996 Y66.290 E0.03582
G1 X84.684 Y65.191 E0.03582
G1 X84.584 Y64.117 E0.03384
G1 X84.683 Y62.919 E0.03767
G1 X84.996 Y61.818 E0.03591
G1 X85.505 Y60.795 E0.03582
G1 X86.194 Y59.884 E0.03582
G1 X87.038 Y59.114 E0.03582
G1 X88.009 Y58.513 E0.03582
G1 X89.074 Y58.100 E0.03582
G1 X90.197 Y57.890 E0.03582
G1 X91.339 Y57.890 E0.03582
G1 X92.462 Y58.100 E0.03582
G1 X93.527 Y58.513 E0.03582
G1 X94.426 Y59.069 E0.03315
G1 X94.228 Y59.390 F9000.000
;TYPE:External perimeter
G1 F1200.000
G1 X95.063 Y60.139 E0.03517
G1 X95.709 Y60.995 E0.03362
G1 X96.187 Y61.955 E0.03362
G1 X96.481 Y62.986 E0.03362
G1 X96.574 Y63.993 E0.03171
G1 X96.481 Y65.121 E0.03548
G1 X96.187 Y66.153 E0.03366
G1 X95.709 Y67.113 E0.03362
G1 X95.063 Y67.969 E0.03362
G1 X94.270 Y68.692 E0.03362
G1 X93.359 Y69.256 E0.03362
G1 X92.359 Y69.643 E0.03362
G1 X91.304 Y69.841 E0.03362
G1 X90.232 Y69.841 E0.03362
G1 X89.178 Y69.643 E0.03362
G1 X88.178 Y69.256 E0.03362
G1 X87.266 Y68.692 E0.03362
G1 X86.474 Y67.969 E0.03362
G1 X85.827 Y67.113 E0.03362
G1 X85.349 Y66.153 E0.03362
G1 X85.056 Y65.122 E0.03362
G1 X84.963 Y64.115 E0.03171
G1 X85.056 Y62.987 E0.03548
G1 X85.349 Y61.955 E0.03366
G1 X85.827 Y60.995 E0.03362
G1 X86.474 Y60.139 E0.03362
G1 X87.266 Y59.416 E0.03362
G1 X88.178 Y58.852 E0.03362
G1 X89.178 Y58.465 E0.03362
G1 X90.232 Y58.267 E0.03362
G1 X91.304 Y58.267 E0.03362
G1 X92.359 Y58.465 E0.03362
G1 X93.359 Y58.852 E0.03362
G1 X94.177 Y59.358 E0.03017
G1 X94.595 Y59.232 F9000.000
G1 E-5.00000 F3600.000
G1 X81.725 Y62.847 F9000.000
G1 E5.00000 F2400.000
;TYPE:Perimeter
G1 F1200.000
G1 X81.837 Y64.054 E0.03801
G1 X81.725 Y65.261 E0.03801
G1 X81.393 Y66.427 E0.03801
G1 X80.853 Y67.512 E0.03801
G1 X80.123 Y68.479 E0.03801
G1 X79.227 Y69.296 E0.03801
G1 X78.196 Y69.934 E0.03801
G1 X77.066 Y70.372 E0.03801
G1 X75.874 Y70.595 E0.03801
G1 X74.662 Y70.595 E0.03801
G1 X73.471 Y70.372 E0.03801
G1 X72.340 Y69.934 E0.03801
G1 X71.310 Y69.296 E0.03801
G1 X70.414 Y68.479 E0.03801
G1 X69.683 Y67.512 E0.03801
G1 X69.143 Y66.427 E0.03801
G1 X68.811 Y65.261 E0.03801
G1 X68.700 Y64.054 E0.03801
G1 X68.811 Y62.847 E0.03801
G1 X69.143 Y61.681 E0.03801
G1 X69.683 Y60.596 E0.03801
G1 X70.414 Y59.629 E0.03801
G1 X71.310 Y58.812 E0.03801
G1 X72.340 Y58.174 E0.03801
G1 X73.471 Y57.736 E0.03801
G1 X74.662 Y57.513 E0.03801
G1 X75.874 Y57.513 E0.03801
G1 X77.066 Y57.736 E0.03801
G1 X78.196 Y58.174 E0.03801
G1 X79.227 Y58.812 E0.03801
G1 X80.123 Y59.629 E0.03801
G1 X80.853 Y60.596 E0.03801
G1 X81.393 Y61.681 E0.03801
G1 X81.709 Y62.789 E0.03613
G1 X81.346 Y62.892 F9000.000
G1 F1200.000
G1 X81.458 Y64.054 E0.03659
G1 X81.353 Y65.191 E0.03582
