; generated by PrusaSlicer 2.3.3+win64 on 2021-12-14 at 07:15:29 UTC

; 

; external perimeters extrusion width = 0.45mm
; perimeters extrusion width = 0.45mm
; infill extrusion width = 0.45mm
; solid infill extrusion width = 0.45mm
; top infill extrusion width = 0.40mm
; first layer extrusion width = 0.42mm

M201 X500 Y500 Z100 E5000 ; sets maximum accelerations, mm/sec^2
M203 X500 Y500 Z10 E60 ; sets maximum feedrates, mm/sec
M204 P500 R1000 T500 ; sets acceleration (P, T) and retract acceleration (R), mm/sec^2
M205 X8.00 Y8.00 Z0.40 E5.00 ; sets the jerk limits, mm/sec
M205 S0 T0 ; sets the minimum extruding and travel feed rate, mm/sec
;TYPE:Custom
G90 ; use absolute coordinates
M83 ; extruder relative mode
M140 S60 ; set final bed temp
M104 S150 ; set temporary nozzle temp to prevent oozing during homing
G4 S10 ; allow partial nozzle warmup
G28 ; home all axis
G1 Z50 F240
G1 X2 Y10 F3000
M104 S210 ; set final nozzle temp
M190 S60 ; wait for bed temp to stabilize
M109 S210 ; wait for nozzle temp to stabilize
G1 Z0.28 F240
G92 E0
G1 Y140 E10 F1500 ; prime the nozzle
G1 X2.3 F5000
G92 E0
G1 Y10 E10 F1200 ; prime the nozzle
G92 E0
G21 ; set units to millimeters
G90 ; use absolute coordinates
M83 ; use relative distances for extrusion
; Filament gcode
M106 S255
;LAYER_CHANGE
;Z:0.2
;HEIGHT:0.2
;BEFORE_LAYER_CHANGE
G92 E0
;0.2


G1 Z0.200 F9000.000
;AFTER_LAYER_CHANGE
;0.2
G1 E-5.00000 F3600.000
G1 X52.124 Y49.044 F9000.000
G1 E5.00000 F2400.000
M204 S500
;TYPE:Skirt
;WIDTH:0.42
G1 F1200.000
G1 X53.292 Y47.869 E0.05197
G1 X54.832 Y46.603 E0.06248
G1 X56.389 Y45.591 E0.05823
G1 X58.036 Y44.753 E0.05794
G1 X59.893 Y44.055 E0.06220
G1 X61.504 Y43.629 E0.05225
G1 X63.149 Y43.363 E0.05225
G1 X65.070 Y43.246 E0.06035
G1 X157.052 Y43.246 E2.88403
G1 X159.055 Y43.365 E0.06290
G1 X160.705 Y43.631 E0.05241
G1 X162.450 Y44.099 E0.05666
G1 X164.319 Y44.829 E0.06291
G1 X165.810 Y45.594 E0.05253
G1 X167.206 Y46.495 E0.05211
G1 X168.774 Y47.747 E0.06291
G1 X170.175 Y49.165 E0.06248
G1 X171.226 Y50.470 E0.05254
G1 X172.142 Y51.873 E0.05254
G1 X173.066 Y53.663 E0.06319
G1 X173.715 Y55.355 E0.05680
G1 X174.187 Y57.114 E0.05709
G1 X174.475 Y58.925 E0.05751
G1 X174.569 Y60.612 E0.05296
G1 X174.572 Y80.184 E0.61367
G1 X174.476 Y83.118 E0.09205
G1 X174.187 Y86.046 E0.09224
G1 X173.707 Y88.953 E0.09238
G1 X173.039 Y91.822 E0.09238
G1 X172.185 Y94.637 E0.09224
G1 X171.146 Y97.399 E0.09252
G1 X169.932 Y100.079 E0.09224
G1 X168.541 Y102.681 E0.09252
G1 X167.044 Y105.092 E0.08896
G1 X165.199 Y107.666 E0.09930
G1 X163.394 Y109.863 E0.08915
G1 X161.308 Y112.082 E0.09551
G1 X159.232 Y114.024 E0.08911
G1 X156.955 Y115.893 E0.09238
G1 X154.559 Y117.609 E0.09238
G1 X152.053 Y119.167 E0.09252
G1 X149.463 Y120.551 E0.09210
G1 X146.875 Y121.726 E0.08911
G1 X143.915 Y122.840 E0.09916
G1 X141.198 Y123.662 E0.08901
G1 X138.329 Y124.331 E0.09238
G1 X135.426 Y124.810 E0.09224
G1 X132.530 Y125.096 E0.09124
G1 X127.588 Y125.252 E0.15504
G1 X90.419 Y125.245 E1.16540
G1 X87.549 Y124.929 E0.09054
G1 X83.963 Y124.348 E0.11390
G1 X80.890 Y123.632 E0.09892
G1 X78.171 Y122.805 E0.08911
G1 X75.418 Y121.768 E0.09224
G1 X72.734 Y120.553 E0.09238
G1 X70.227 Y119.215 E0.08911
G1 X67.544 Y117.546 E0.09906
G1 X65.235 Y115.889 E0.08911
G1 X62.961 Y114.023 E0.09224
G1 X60.811 Y112.009 E0.09238
G1 X58.867 Y109.936 E0.08911
G1 X56.862 Y107.494 E0.09906
G1 X55.209 Y105.182 E0.08911
G1 X53.651 Y102.676 E0.09252
G1 X52.266 Y100.086 E0.09210
G1 X51.093 Y97.502 E0.08896
G1 X50.012 Y94.645 E0.09579
G1 X49.130 Y91.719 E0.09579
G1 X48.487 Y88.951 E0.08911
G1 X48.013 Y86.085 E0.09110
G1 X47.719 Y83.117 E0.09352
G1 X47.623 Y80.222 E0.09081
G1 X47.626 Y60.607 E0.61501
G1 X47.718 Y58.938 E0.05240
G1 X47.973 Y57.301 E0.05197
G1 X48.434 Y55.507 E0.05807
G1 X49.130 Y53.659 E0.06191
G1 X49.977 Y51.996 E0.05851
G1 X51.068 Y50.340 E0.06220
G1 X52.086 Y49.090 E0.05051
G1 E-5.00000 F3600.000
G1 X87.333 Y61.506 F9000.000
G1 E5.00000 F2400.000
;TYPE:Perimeter
G1 F1200.000
G1 X130.262 Y61.506 E1.34599
G1 X130.262 Y117.135 E1.74419
G1 X87.333 Y117.135 E1.34599
G1 X87.333 Y61.566 E1.74231
G1 X87.710 Y61.883 F9000.000
G1 F1200.000
G1 X129.885 Y61.883 E1.32234
G1 X129.885 Y116.757 E1.72054
G1 X87.710 Y116.757 E1.32234
G1 X87.710 Y61.943 E1.71866
G1 X88.088 Y62.260 F9000.000
;TYPE:External perimeter
G1 F1200.000
G1 X129.508 Y62.260 E1.29869
G1 X129.508 Y116.380 E1.69689
G1 X88.088 Y116.380 E1.29869
G1 X88.088 Y62.320 E1.69501
G1 X88.001 Y61.870 F9000.000
G1 E-5.00000 F3600.000
G1 X82.256 Y70.834 F9000.000
G1 E5.00000 F2400.000
;TYPE:Perimeter
G1 F1200.000
G1 X83.152 Y71.651 E0.03801
G1 X83.882 Y72.618 E0.03801
G1 X84.423 Y73.703 E0.03801
G1 X84.754 Y74.869 E0.03801
G1 X84.860 Y76.012 E0.03597
G1 X84.756 Y77.278 E0.03986
G1 X84.423 Y78.449 E0.03816
G1 X83.882 Y79.534 E0.03801
G1 X83.152 Y80.502 E0.03801
G1 X82.256 Y81.318 E0.03801
G1 X81.225 Y81.956 E0.03801
G1 X80.095 Y82.394 E0.03801
G1 X78.904 Y82.617 E0.03801
G1 X77.691 Y82.617 E0.03801
G1 X76.500 Y82.394 E0.03801
G1 X75.370 Y81.956 E0.03801
G1 X74.339 Y81.318 E0.03801
G1 X73.443 Y80.502 E0.03801
G1 X72.713 Y79.534 E0.03801
G1 X72.172 Y78.449 E0.03801
G1 X71.841 Y77.283 E0.03801
G1 X71.735 Y76.141 E0.03597
G1 X71.839 Y74.874 E0.03986
G1 X72.172 Y73.703 E0.03816
G1 X72.713 Y72.618 E0.03801
G1 X73.443 Y71.651 E0.03801
G1 X74.339 Y70.834 E0.03801
G1 X75.370 Y70.196 E0.03801
G1 X76.500 Y69.758 E0.03801
G1 X77.691 Y69.536 E0.03801
G1 X78.904 Y69.536 E0.03801
G1 X80.095 Y69.758 E0.03801
G1 X81.225 Y70.196 E0.03801
G1 X82.205 Y70.803 E0.03613
G1 X82.007 Y71.123 F9000.000
G1 F1200.000
G1 X82.872 Y71.906 E0.03659
G1 X83.560 Y72.818 E0.03582
G1 X84.070 Y73.840 E0.03582
G1 X84.382 Y74.939 E0.03582
G1 X84.482 Y76.013 E0.03384
G1 X84.383 Y77.211 E0.03767
G1 X84.070 Y78.312 E0.03591
G1 X83.560 Y79.335 E0.03582
G1 X82.872 Y80.246 E0.03582
G1 X82.028 Y81.016 E0.03582
G1 X81.057 Y81.617 E0.03582
G1 X79.992 Y82.030 E0.03582
G1 X78.869 Y82.240 E0.03582
G1 X77.726 Y82.240 E0.03582
G1 X76.604 Y82.030 E0.03582
G1 X75.538 Y81.617 E0.03582
G1 X74.567 Y81.016 E0.03582
G1 X73.723 Y80.246 E0.03582
G1 X73.035 Y79.335 E0.03582
G1 X72.526 Y78.312 E0.03582
G1 X72.213 Y77.214 E0.03582
G1 X72.113 Y76.139 E0.03384
G1 X72.212 Y74.942 E0.03767
G1 X72.526 Y73.840 E0.03591
G1 X73.035 Y72.818 E0.03582
G1 X73.723 Y71.906 E0.03582
G1 X74.567 Y71.136 E0.03582
G1 X75.538 Y70.535 E0.03582
G1 X76.604 Y70.122 E0.03582
G1 X77.726 Y69.913 E0.03582
G1 X78.869 Y69.913 E0.03582
G1 X79.992 Y70.122 E0.03582
G1 X81.057 Y70.535 E0.03582
G1 X81.956 Y71.092 E0.03315
G1 X81.757 Y71.412 F9000.000
;TYPE:External perimeter
G1 F1200.000
G1 X82.592 Y72.161 E0.03517
G1 X83.238 Y73.017 E0.03362
G1 X83.716 Y73.977 E0.03362
G1 X84.010 Y75.008 E0.03362
G1 X84.103 Y76.015 E0.03171
G1 X84.010 Y77.143 E0.03548
G1 X83.716 Y78.175 E0.03366
G1 X83.238 Y79.135 E0.03362
G1 X82.592 Y79.991 E0.03362
G1 X81.800 Y80.714 E0.03362
G1 X80.888 Y81.278 E0.03362
G1 X79.888 Y81.666 E0.03362
G1 X78.834 Y81.863 E0.03362
G1 X77.761 Y81.863 E0.03362
G1 X76.707 Y81.666 E0.03362
G1 X75.707 Y81.278 E0.03362
G1 X74.795 Y80.714 E0.03362
G1 X74.003 Y79.991 E0.03362
G1 X73.357 Y79.135 E0.03362
G1 X72.879 Y78.175 E0.03362
G1 X72.585 Y77.144 E0.03362
G1 X72.492 Y76.137 E0.03171
G1 X72.585 Y75.009 E0.03548
G1 X72.879 Y73.977 E0.03366
G1 X73.357 Y73.017 E0.03362
G1 X74.003 Y72.161 E0.03362
G1 X74.795 Y71.439 E0.03362
G1 X75.707 Y70.874 E0.03362
G1 X76.707 Y70.487 E0.03362
G1 X77.761 Y70.290 E0.03362
G1 X78.834 Y70.290 E0.03362
G1 X79.888 Y70.487 E0.03362
G1 X80.888 Y70.874 E0.03362
G1 X81.706 Y71.381 E0.03017
G1 X82.124 Y71.254 F9000.000
G1 E-5.00000 F3600.000
G1 X69.254 Y74.869 F9000.000
G1 E5.00000 F2400.000
;TYPE:Perimeter
G1 F1200.000
G1 X69.366 Y76.076 E0.03801
G1 X69.254 Y77.283 E0.03801
G1 X68.923 Y78.449 E0.03801
G1 X68.382 Y79.534 E0.03801
G1 X67.652 Y80.502 E0.03801
G1 X66.756 Y81.318 E0.03801
G1 X65.725 Y81.956 E0.03801
G1 X64.595 Y82.394 E0.03801
G1 X63.404 Y82.617 E0.03801
G1 X62.191 Y82.617 E0.03801
G1 X61.000 Y82.394 E0.03801
G1 X59.870 Y81.956 E0.03801
G1 X58.839 Y81.318 E0.03801
G1 X57.943 Y80.502 E0.03801
G1 X57.213 Y79.534 E0.03801
G1 X56.672 Y78.449 E0.03801
G1 X56.341 Y77.283 E0.03801
G1 X56.229 Y76.076 E0.03801
G1 X56.341 Y74.869 E0.03801
G1 X56.672 Y73.703 E0.03801
G1 X57.213 Y72.618 E0.03801
G1 X57.943 Y71.651 E0.03801
G1 X58.839 Y70.834 E0.03801
G1 X59.870 Y70.196 E0.03801
G1 X61.000 Y69.758 E0.03801
G1 X62.191 Y69.536 E0.03801
G1 X63.404 Y69.536 E0.03801
G1 X64.595 Y69.758 E0.03801
G1 X65.725 Y70.196 E0.03801
G1 X66.756 Y70.834 E0.03801
G1 X67.652 Y71.651 E0.03801
G1 X68.382 Y72.618 E0.03801
G1 X68.923 Y73.703 E0.03801
G1 X69.238 Y74.811 E0.03613
G1 X68.875 Y74.915 F9000.000
G1 F1200.000
G1 X68.988 Y76.076 E0.03659
G1 X68.882 Y77.214 E0.03582
G1 X68.570 Y78.312 E0.03582
G1 X68.060 Y79.335 E0.03582
G1 X67.372 Y80.246 E0.03582
G1 X66.528 Y81.016 E0.03582
G1 X65.557 Y81.617 E0.03582
G1 X64.492 Y82.030 E0.03582
G1 X63.369 Y82.240 E0.03582
G1 X62.226 Y82.240 E0.03582
G1 X61.104 Y82.030 E0.03582
G1 X60.038 Y81.617 E0.03582
G1 X59.067 Y81.016 E0.03582
G1 X58.223 Y80.246 E0.03582
G1 X57.535 Y79.335 E0.03582
G1 X57.026 Y78.312 E0.03582
G1 X56.713 Y77.214 E0.03582
G1 X56.608 Y76.076 E0.03582
G1 X56.713 Y74.939 E0.03582
G1 X57.026 Y73.840 E0.03582
G1 X57.535 Y72.818 E0.03582
G1 X58.223 Y71.906 E0.03582
G1 X59.067 Y71.136 E0.03582
G1 X60.038 Y70.535 E0.03582
G1 X61.104 Y70.122 E0.03582
G1 X62.226 Y69.913 E0.03582
G1 X63.369 Y69.913 E0.03582
G1 X64.492 Y70.122 E0.03582
G1 X65.557 Y70.535 E0.03582
G1 X66.528 Y71.136 E0.03582
G1 X67.372 Y71.906 E0.03582
G1 X68.060 Y72.818 E0.03582
G1 X68.570 Y73.840 E0.03582
G1 X68.859 Y74.857 E0.03315
G1 X68.496 Y74.960 F9000.000
;TYPE:External perimeter
G1 F1200.000
G1 X68.609 Y76.076 E0.03517
G1 X68.510 Y77.144 E0.03362
G1 X68.216 Y78.175 E0.03362
G1 X67.738 Y79.135 E0.03362
G1 X67.092 Y79.991 E0.03362
G1 X66.300 Y80.714 E0.03362
G1 X65.388 Y81.278 E0.03362
G1 X64.388 Y81.666 E0.03362
G1 X63.334 Y81.863 E0.03362
G1 X62.261 Y81.863 E0.03362
G1 X61.207 Y81.666 E0.03362
G1 X60.207 Y81.278 E0.03362
G1 X59.295 Y80.714 E0.03362
G1 X58.503 Y79.991 E0.03362
G1 X57.857 Y79.135 E0.03362
G1 X57.379 Y78.175 E0.03362
G1 X57.085 Y77.144 E0.03362
G1 X56.986 Y76.076 E0.03362
G1 X57.085 Y75.008 E0.03362
G1 X57.379 Y73.977 E0.03362
G1 X57.857 Y73.017 E0.03362
G1 X58.503 Y72.161 E0.03362
G1 X59.295 Y71.439 E0.03362
G1 X60.207 Y70.874 E0.03362
G1 X61.207 Y70.487 E0.03362
G1 X62.261 Y70.290 E0.03362
G1 X63.334 Y70.290 E0.03362
G1 X64.388 Y70.487 E0.03362
G1 X65.388 Y70.874 E0.03362
G1 X66.300 Y71.439 E0.03362
G1 X67.092 Y72.161 E0.03362
G1 X67.738 Y73.017 E0.03362
G1 X68.216 Y73.977 E0.03362
G1 X68.480 Y74.902 E0.03017
G1 X68.874 Y75.091 F9000.000
G1 E-5.00000 F3600.000
G1 X66.085 Y86.104 F9000.000
G1 E5.00000 F2400.000
;TYPE:Perimeter
G1 F1200.000
G1 X66.834 Y86.415 E0.02542
G1 X67.471 Y86.903 E0.02516
G1 X67.959 Y87.540 E0.02516
G1 X68.248 Y88.237 E0.02366
G1 X68.372 Y89.068 E0.02635
G1 X68.266 Y89.872 E0.02542
G1 X67.959 Y90.613 E0.02516
G1 X67.471 Y91.249 E0.02516
G1 X66.834 Y91.738 E0.02516
G1 X66.093 Y92.045 E0.02516
G1 X65.298 Y92.150 E0.02516
G1 X64.502 Y92.045 E0.02516
G1 X63.761 Y91.738 E0.02516
G1 X63.124 Y91.249 E0.02516
G1 X62.636 Y90.613 E0.02516
G1 X62.329 Y89.872 E0.02516
G1 X62.224 Y89.076 E0.02516
G1 X62.329 Y88.281 E0.02516
G1 X62.636 Y87.540 E0.02516
G1 X63.124 Y86.903 E0.02516
G1 X63.761 Y86.415 E0.02516
G1 X64.502 Y86.108 E0.02516
G1 X65.250 Y86.009 E0.02366
G1 X66.025 Y86.098 E0.02447
G1 X65.983 Y86.472 F9000.000
G1 F1200.000
G1 X66.644 Y86.744 E0.02242
G1 X67.202 Y87.172 E0.02204
G1 X67.630 Y87.730 E0.02204
G1 X67.882 Y88.338 E0.02065
G1 X67.991 Y89.071 E0.02324
G1 X67.899 Y89.773 E0.02221
G1 X67.630 Y90.423 E0.02204
G1 X67.202 Y90.980 E0.02204
G1 X66.644 Y91.408 E0.02204
G1 X65.995 Y91.677 E0.02204
G1 X65.298 Y91.769 E0.02204
G1 X64.601 Y91.677 E0.02204
G1 X63.951 Y91.408 E0.02204
G1 X63.393 Y90.980 E0.02204
G1 X62.965 Y90.423 E0.02204
G1 X62.696 Y89.773 E0.02204
G1 X62.605 Y89.076 E0.02204
G1 X62.696 Y88.379 E0.02204
G1 X62.965 Y87.730 E0.02204
G1 X63.393 Y87.172 E0.02204
G1 X63.951 Y86.744 E0.02204
G1 X64.601 Y86.475 E0.02204
G1 X65.253 Y86.389 E0.02065
G1 X65.923 Y86.465 E0.02113
G1 X65.880 Y86.840 F9000.000
;TYPE:External perimeter
G1 F1200.000
G1 X66.454 Y87.073 E0.01941
G1 X66.933 Y87.441 E0.01893
G1 X67.300 Y87.920 E0.01893
G1 X67.516 Y88.440 E0.01764
G1 X67.610 Y89.074 E0.02012
G1 X67.531 Y89.675 E0.01899
G1 X67.300 Y90.233 E0.01893
G1 X66.933 Y90.712 E0.01893
G1 X66.454 Y91.079 E0.01893
G1 X65.896 Y91.310 E0.01893
G1 X65.298 Y91.389 E0.01893
G1 X64.699 Y91.310 E0.01893
G1 X64.141 Y91.079 E0.01893
G1 X63.662 Y90.712 E0.01893
G1 X63.295 Y90.233 E0.01893
G1 X63.064 Y89.675 E0.01893
G1 X62.985 Y89.076 E0.01893
G1 X63.064 Y88.478 E0.01893
G1 X63.295 Y87.920 E0.01893
G1 X63.662 Y87.441 E0.01893
G1 X64.141 Y87.073 E0.01893
G1 X64.699 Y86.842 E0.01893
G1 X65.257 Y86.769 E0.01764
G1 X65.821 Y86.833 E0.01780
G1 X66.162 Y86.556 F9000.000
G1 E-5.00000 F3600.000
G1 X72.829 Y88.281 F9000.000
G1 E5.00000 F2400.000
;TYPE:Perimeter
G1 F1200.000
G1 X73.136 Y87.540 E0.02516
G1 X73.624 Y86.903 E0.02516
G1 X74.261 Y86.415 E0.02516
G1 X75.002 Y86.108 E0.02516
G1 X75.750 Y86.009 E0.02366
G1 X76.585 Y86.104 E0.02635
G1 X77.334 Y86.415 E0.02542
G1 X77.971 Y86.903 E0.02516
G1 X78.459 Y87.540 E0.02516
G1 X78.748 Y88.237 E0.02366
G1 X78.872 Y89.068 E0.02635
G1 X78.766 Y89.872 E0.02542
G1 X78.459 Y90.613 E0.02516
G1 X77.971 Y91.249 E0.02516
G1 X77.334 Y91.738 E0.02516
G1 X76.593 Y92.045 E0.02516
G1 X75.798 Y92.150 E0.02516
G1 X75.002 Y92.045 E0.02516
G1 X74.261 Y91.738 E0.02516
G1 X73.624 Y91.249 E0.02516
G1 X73.136 Y90.613 E0.02516
G1 X72.829 Y89.872 E0.02516
G1 X72.724 Y89.076 E0.02516
G1 X72.821 Y88.340 E0.02327
G1 X73.195 Y88.389 F9000.000
G1 F1200.000
G1 X73.465 Y87.730 E0.02236
G1 X73.893 Y87.172 E0.02204
G1 X74.451 Y86.744 E0.02204
G1 X75.101 Y86.475 E0.02204
G1 X75.753 Y86.389 E0.02065
G1 X76.490 Y86.473 E0.02323
G1 X77.144 Y86.744 E0.02221
G1 X77.702 Y87.172 E0.02204
G1 X78.130 Y87.730 E0.02204
G1 X78.382 Y88.338 E0.02065
G1 X78.491 Y89.071 E0.02324
G1 X78.399 Y89.773 E0.02221
G1 X78.130 Y90.423 E0.02204
G1 X77.702 Y90.980 E0.02204
G1 X77.144 Y91.408 E0.02204
G1 X76.495 Y91.677 E0.02204
G1 X75.798 Y91.769 E0.02204
G1 X75.101 Y91.677 E0.02204
G1 X74.451 Y91.408 E0.02204
G1 X73.893 Y90.980 E0.02204
G1 X73.465 Y90.423 E0.02204
G1 X73.196 Y89.773 E0.02204
G1 X73.105 Y89.076 E0.02204
G1 X73.187 Y88.449 E0.01984
G1 X73.561 Y88.498 F9000.000
;TYPE:External perimeter
G1 F1200.000
G1 X73.795 Y87.920 E0.01956
G1 X74.162 Y87.441 E0.01893
G1 X74.641 Y87.073 E0.01893
G1 X75.199 Y86.842 E0.01893
G1 X75.757 Y86.769 E0.01764
G1 X76.394 Y86.842 E0.02012
G1 X76.954 Y87.073 E0.01899
G1 X77.433 Y87.441 E0.01893
G1 X77.800 Y87.920 E0.01893
G1 X78.016 Y88.440 E0.01764
G1 X78.110 Y89.074 E0.02012
G1 X78.031 Y89.675 E0.01899
G1 X77.800 Y90.233 E0.01893
G1 X77.433 Y90.712 E0.01893
G1 X76.954 Y91.079 E0.01893
G1 X76.396 Y91.310 E0.01893
G1 X75.798 Y91.389 E0.01893
G1 X75.199 Y91.310 E0.01893
G1 X74.641 Y91.079 E0.01893
G1 X74.162 Y90.712 E0.01893
G1 X73.795 Y90.233 E0.01893
G1 X73.564 Y89.675 E0.01893
G1 X73.485 Y89.076 E0.01893
G1 X73.553 Y88.558 E0.01640
G1 X73.276 Y88.217 F9000.000
G1 E-5.00000 F3600.000
G1 X143.493 Y82.130 F9000.000
G1 E5.00000 F2400.000
;TYPE:Perimeter
G1 F1200.000
G1 X143.029 Y82.165 E0.01457
G1 X142.671 Y82.233 E0.01143
G1 X142.323 Y82.321 E0.01124
G1 X141.333 Y82.723 E0.03351
G1 X140.122 Y82.979 E0.03882
G1 X138.949 Y83.015 E0.03680
G1 X137.663 Y82.833 E0.04072
G1 X136.486 Y82.434 E0.03897
G1 X135.404 Y81.835 E0.03879
G1 X134.491 Y81.095 E0.03683
G1 X133.639 Y80.114 E0.04076
G1 X133.012 Y79.044 E0.03887
G1 X132.603 Y77.943 E0.03684
G1 X132.372 Y76.665 E0.04070
G1 X132.372 Y75.490 E0.03686
G1 X132.585 Y74.273 E0.03875
G1 X133.011 Y73.110 E0.03883
G1 X133.639 Y72.038 E0.03894
G1 X134.491 Y71.057 E0.04076
G1 X135.404 Y70.318 E0.03683
G1 X136.486 Y69.718 E0.03879
G1 X137.663 Y69.319 E0.03897
G1 X138.949 Y69.138 E0.04072
G1 X140.122 Y69.173 E0.03680
G1 X141.333 Y69.429 E0.03882
